<?xml version="1.0" encoding="UTF-8"?>
<map version="1.10" tiledversion="1.12.1" orientation="orthogonal" renderorder="right-down" width="78" height="78" tilewidth="24" tileheight="24" infinite="0" nextlayerid="26" nextobjectid="570">
 <tileset firstgid="1" source="../../../Python/Freizeit/ThalheimerIsAmongUs/Thalheimer-is-Among-Us/Thalheimer is Among us/Assets/Map/Kachelsätze/4 BigSet.tsx"/>
 <tileset firstgid="91" source="../../../Python/Freizeit/ThalheimerIsAmongUs/Thalheimer-is-Among-Us/Thalheimer is Among us/Assets/Map/Kachelsätze/jdt.tsx"/>
 <layer id="17" name="FloorsFloor" width="78" height="78">
  <data encoding="csv">
150,150,150,150,150,150,150,150,150,150,150,150,150,150,150,150,150,150,150,150,150,150,150,150,150,150,150,150,150,150,150,150,150,150,150,150,150,150,150,150,150,150,150,150,150,150,150,150,150,150,150,150,150,150,150,150,150,150,150,150,150,150,150,150,150,150,150,150,150,150,150,150,150,150,150,150,150,150,
150,150,150,150,150,150,150,150,150,150,150,150,150,150,150,150,150,150,150,150,150,150,150,150,150,150,150,150,150,150,150,150,150,150,150,150,150,150,150,150,150,150,150,150,150,150,150,150,150,150,150,150,150,150,150,150,150,150,150,150,150,150,150,150,150,150,150,150,150,150,150,150,150,150,150,150,150,150,
150,150,150,150,150,150,150,150,150,150,150,150,150,150,150,150,150,150,150,150,150,150,150,150,150,150,150,150,150,150,150,150,150,150,150,150,150,150,150,150,150,150,150,150,150,150,150,150,150,150,150,150,150,150,150,150,150,150,150,150,150,150,150,150,150,150,150,150,150,150,150,150,150,150,150,150,150,150,
150,150,150,150,150,150,150,150,150,150,150,150,150,150,150,150,150,150,150,150,150,150,150,150,150,150,150,150,150,150,150,150,150,150,150,150,150,150,150,150,150,150,150,150,150,150,150,150,150,150,150,150,150,150,150,150,150,150,150,150,150,150,150,150,150,150,150,150,150,150,150,150,150,150,150,150,150,150,
150,150,150,150,150,150,150,150,150,150,150,150,150,150,150,150,150,150,150,150,150,150,150,150,150,150,150,150,150,150,150,150,150,150,150,150,150,150,150,150,150,150,150,150,150,150,150,150,150,150,150,150,150,150,150,150,150,150,150,150,150,150,150,150,150,150,150,150,150,150,150,150,150,150,150,150,150,150,
150,150,150,150,150,150,150,150,150,150,150,150,150,150,150,150,150,150,150,150,150,150,150,150,150,150,150,150,150,150,150,150,150,150,150,150,150,150,150,150,150,150,150,150,150,150,150,150,150,150,150,150,150,150,150,150,150,150,150,150,150,150,150,150,150,150,150,150,150,150,150,150,150,150,150,150,150,150,
150,150,150,150,150,150,150,150,150,150,150,150,150,150,150,150,150,150,150,150,150,150,150,150,150,150,150,150,150,150,150,150,150,150,150,150,150,150,150,150,150,150,150,150,150,150,150,150,150,150,150,150,150,150,150,150,150,150,150,150,150,150,150,150,150,150,150,150,150,150,150,150,150,150,150,150,150,150,
150,150,150,150,150,150,150,150,150,150,150,150,150,150,150,150,150,150,150,150,150,150,150,150,150,150,150,150,150,150,150,150,150,150,150,150,150,150,150,150,150,150,150,150,150,150,150,150,150,150,150,150,150,150,150,150,150,150,150,150,150,150,150,150,150,150,150,150,150,150,150,150,150,150,150,150,150,150,
150,150,150,150,150,150,150,150,150,150,150,150,150,150,150,150,150,150,150,150,150,150,150,150,150,150,150,150,150,150,150,150,150,150,150,150,150,150,150,150,150,150,150,150,150,150,150,150,150,150,150,150,150,150,150,150,150,150,150,150,150,150,150,150,150,150,150,150,150,150,150,150,150,150,150,150,150,150,
150,150,150,150,150,150,150,150,150,150,150,150,150,150,150,150,150,150,150,150,150,150,150,150,150,150,150,150,150,150,150,150,150,150,150,150,150,150,150,150,150,150,150,150,150,150,150,150,150,150,150,150,150,150,150,150,150,150,150,150,150,150,150,150,150,150,150,150,150,150,150,150,150,150,150,150,150,150,
150,150,150,150,150,150,150,150,150,150,150,150,150,150,150,150,150,150,150,150,150,150,150,150,150,150,150,150,150,150,150,150,150,150,150,150,150,150,150,150,150,150,150,150,150,150,150,150,150,150,150,150,150,150,150,150,150,150,150,150,150,150,150,150,150,150,150,150,150,150,150,150,150,150,150,150,150,150,
150,150,150,150,150,150,150,150,150,150,150,150,150,150,150,150,150,150,150,150,150,150,150,150,150,150,150,150,150,150,150,150,150,150,150,150,150,150,150,150,150,150,150,150,150,150,150,150,150,150,150,150,150,150,150,150,150,150,150,150,150,150,150,150,150,150,150,150,150,150,150,150,150,150,150,150,150,150,
150,150,150,150,150,150,150,150,150,150,150,150,150,150,150,150,150,150,150,150,150,150,150,150,150,150,150,150,150,150,150,150,150,150,150,150,150,150,150,150,150,150,150,150,150,150,150,150,150,150,150,150,150,150,150,150,150,150,150,150,150,150,150,150,150,150,150,150,150,150,150,150,150,150,150,150,150,150,
150,150,150,150,150,150,150,150,150,150,150,150,150,150,150,150,150,150,150,150,150,150,150,150,150,150,150,150,150,150,150,150,150,150,150,150,150,150,150,150,150,150,150,150,150,150,150,150,150,150,150,150,150,150,150,150,150,150,150,150,150,150,150,150,150,150,150,150,150,150,150,150,150,150,150,150,150,150,
150,150,150,150,150,150,150,150,150,150,150,150,150,150,150,150,150,150,150,150,150,150,150,150,150,150,150,150,150,150,150,150,150,150,150,150,150,150,150,150,150,150,150,150,150,150,150,150,150,150,150,150,150,150,150,150,150,150,150,150,150,150,150,150,150,150,150,150,150,150,150,150,150,150,150,150,150,150,
150,150,150,150,150,150,150,150,150,150,150,150,150,150,150,150,150,150,150,150,150,150,150,150,150,150,150,150,150,150,150,150,150,150,150,150,150,150,150,150,150,150,150,150,150,150,150,150,150,150,150,150,150,150,150,150,150,150,150,150,150,150,150,150,150,150,150,150,150,150,150,150,150,150,150,150,150,150,
150,150,150,150,150,150,150,150,150,150,150,150,150,150,150,150,150,150,150,150,150,150,150,150,150,150,150,150,150,150,150,150,150,150,150,150,150,150,150,150,150,150,150,150,150,150,150,150,150,150,150,150,150,150,150,150,150,150,150,150,150,150,150,150,150,150,150,150,150,150,150,150,150,150,150,150,150,150,
150,150,150,150,150,150,150,150,150,150,150,150,150,150,150,150,150,150,150,150,150,150,150,150,150,150,150,150,150,150,150,150,150,150,150,150,150,150,150,150,150,150,150,150,150,150,150,150,150,150,150,150,150,150,150,150,150,150,150,150,150,150,150,150,150,150,150,150,150,150,150,150,150,150,150,150,150,150,
150,150,150,150,150,150,150,150,150,150,150,150,150,150,150,150,150,150,150,150,150,150,150,150,150,150,150,150,150,150,150,150,150,150,150,150,150,150,150,150,150,150,150,150,150,150,150,150,150,150,150,150,150,150,150,150,150,150,150,150,150,150,150,150,150,150,150,150,150,150,150,150,150,150,150,150,150,150,
150,150,150,150,150,150,150,150,150,150,150,150,150,150,150,150,150,150,150,150,150,150,150,150,150,150,150,150,150,150,150,150,150,150,150,150,150,150,150,150,150,150,150,150,150,150,150,150,150,150,150,150,150,150,150,150,150,150,150,150,150,150,150,150,150,150,150,150,150,150,150,150,150,150,150,150,150,150,
150,150,150,150,150,150,150,150,150,150,150,150,150,150,150,150,150,150,150,150,150,150,150,150,150,150,150,150,150,150,150,150,150,150,150,150,150,150,150,150,150,150,150,150,150,150,150,150,150,150,150,150,150,150,150,150,150,150,150,150,150,150,150,150,150,150,150,150,150,150,150,150,150,150,150,150,150,150,
150,150,150,150,150,150,150,150,150,150,150,150,150,150,150,150,150,150,150,150,150,150,150,150,150,150,150,150,150,150,150,150,150,150,150,150,150,150,150,150,150,150,150,150,150,150,150,150,150,150,150,150,150,150,150,150,150,150,150,150,150,150,150,150,150,150,150,150,150,150,150,150,150,150,150,150,150,150,
150,150,150,150,150,150,150,150,150,150,150,150,150,150,150,150,150,150,150,150,150,150,150,150,150,150,150,150,150,150,150,150,150,150,150,150,150,150,150,150,150,150,150,150,150,150,150,150,150,150,150,150,150,150,150,150,150,150,150,150,150,150,150,150,150,150,150,150,150,150,150,150,150,150,150,150,150,150,
150,150,150,150,150,150,150,150,150,150,150,150,150,150,150,150,150,150,150,150,150,150,150,150,150,150,150,150,150,150,150,150,150,150,150,150,150,150,150,150,150,150,150,150,150,150,150,150,150,150,150,150,150,150,150,150,150,150,150,150,150,150,150,150,150,150,150,150,150,150,150,150,150,150,150,150,150,150,
150,150,150,150,150,150,150,150,150,150,150,150,150,150,150,150,150,150,150,150,150,150,150,150,150,150,150,150,150,150,150,150,150,150,150,150,150,150,150,150,150,150,150,150,150,150,150,150,150,150,150,150,150,150,150,150,150,150,150,150,150,150,150,150,150,150,150,150,150,150,150,150,150,150,150,150,150,150,
150,150,150,150,150,150,150,150,150,150,150,150,150,150,150,150,150,150,150,150,150,150,150,150,150,150,150,150,150,150,150,150,150,150,150,150,150,150,150,150,150,150,150,150,150,150,150,150,150,150,150,150,150,150,150,150,150,150,150,150,150,150,150,150,150,150,150,150,150,150,150,150,150,150,150,150,150,150,
150,150,150,150,150,150,150,150,150,150,150,150,150,150,150,150,150,150,150,150,150,150,150,150,150,150,150,150,150,150,150,150,150,150,150,150,150,150,150,150,150,150,150,150,150,150,150,150,150,150,150,150,150,150,150,150,150,150,150,150,150,150,150,150,150,150,150,150,150,150,150,150,150,150,150,150,150,150,
150,150,150,150,150,150,150,150,150,150,150,150,150,150,150,150,150,150,150,150,150,150,150,150,150,150,150,150,150,150,150,150,150,150,150,150,150,150,150,150,150,150,150,150,150,150,150,150,150,150,150,150,150,150,150,150,150,150,150,150,150,150,150,150,150,150,150,150,150,150,150,150,150,150,150,150,150,150,
150,150,150,150,150,150,150,150,150,150,150,150,150,150,150,150,150,150,150,150,150,150,150,150,150,150,150,150,150,150,150,150,150,150,150,150,150,150,150,150,150,150,150,150,150,150,150,150,150,150,150,150,150,150,150,150,150,150,150,150,150,150,150,150,150,150,150,150,150,150,150,150,150,150,150,150,150,150,
150,150,150,150,150,150,150,150,150,150,150,150,150,150,150,150,150,150,150,150,150,150,150,150,150,150,150,150,150,150,150,150,150,150,150,150,150,150,150,150,150,150,150,150,150,150,150,150,150,150,150,150,150,150,150,150,150,150,150,150,150,150,150,150,150,150,150,150,150,150,150,150,150,150,150,150,150,150,
150,150,150,150,150,150,150,150,150,150,150,150,150,150,150,150,150,150,150,150,150,150,150,150,150,150,150,150,150,150,150,150,150,150,150,150,150,150,150,150,150,150,150,150,150,150,150,150,150,150,150,150,150,150,150,150,150,150,150,150,150,150,150,150,150,150,150,150,150,150,150,150,150,150,150,150,150,150,
150,150,150,150,150,150,150,150,150,150,150,150,150,150,150,150,150,150,150,150,150,150,150,150,150,150,150,150,150,150,150,150,150,150,150,150,150,150,150,150,150,150,150,150,150,150,150,150,150,150,150,150,150,150,150,150,150,150,150,150,150,150,150,150,150,150,150,150,150,150,150,150,150,150,150,150,150,150,
150,150,150,150,150,150,150,150,150,150,150,150,150,150,150,150,150,150,150,150,150,150,150,150,150,150,150,150,150,150,150,150,150,150,150,150,150,150,150,150,150,150,150,150,150,150,150,150,150,150,150,150,150,150,150,150,150,150,150,150,150,150,150,150,150,150,150,150,150,150,150,150,150,150,150,150,150,150,
150,150,150,150,150,150,150,150,150,150,150,150,150,150,150,150,150,150,150,150,150,150,150,150,150,150,150,150,150,150,150,150,150,150,150,150,150,150,150,150,150,150,150,150,150,150,150,150,150,150,150,150,150,150,150,150,150,150,150,150,150,150,150,150,150,150,150,150,150,150,150,150,150,150,150,150,150,150,
150,150,150,150,150,150,150,150,150,150,150,150,150,150,150,150,150,150,150,150,150,150,150,150,150,150,150,150,150,150,150,150,150,150,150,150,150,150,150,150,150,150,150,150,150,150,150,150,150,150,150,150,150,150,150,150,150,150,150,150,150,150,150,150,150,150,150,150,150,150,150,150,150,150,150,150,150,150,
150,150,150,150,150,150,150,150,150,150,150,150,150,150,150,150,150,150,150,150,150,150,150,150,150,150,150,150,150,150,150,150,150,150,150,150,150,150,150,150,150,150,150,150,150,150,150,150,150,150,150,150,150,150,150,150,150,150,150,150,150,150,150,150,150,150,150,150,150,150,150,150,150,150,150,150,150,150,
150,150,150,150,150,150,150,150,150,150,150,150,150,150,150,150,150,150,150,150,150,150,150,150,150,150,150,150,150,150,150,150,150,150,150,150,150,150,150,150,150,150,150,150,150,150,150,150,150,150,150,150,150,150,150,150,150,150,150,150,150,150,150,150,150,150,150,150,150,150,150,150,150,150,150,150,150,150,
150,150,150,150,150,150,150,150,150,150,150,150,150,150,150,150,150,150,150,150,150,150,150,150,150,150,150,150,150,150,150,150,150,150,150,150,150,150,150,150,150,150,150,150,150,150,150,150,150,150,150,150,150,150,150,150,150,150,150,150,150,150,150,150,150,150,150,150,150,150,150,150,150,150,150,150,150,150,
150,150,150,150,150,150,150,150,150,150,150,150,150,150,150,150,150,150,150,150,150,150,150,150,150,150,150,150,150,150,150,150,150,150,150,150,150,150,150,150,150,150,150,150,150,150,150,150,150,150,150,150,150,150,150,150,150,150,150,150,150,150,150,150,150,150,150,150,150,150,150,150,150,150,150,150,150,150,
150,150,150,150,150,150,150,150,150,150,150,150,150,150,150,150,150,150,150,150,150,150,150,150,150,150,150,150,150,150,150,150,150,150,150,150,150,150,150,150,150,150,150,150,150,150,150,150,150,150,150,150,150,150,150,150,150,150,150,150,150,150,150,150,150,150,150,150,150,150,150,150,150,150,150,150,150,150,
150,150,150,150,150,150,150,150,150,150,150,150,150,150,150,150,150,150,150,150,150,150,150,150,150,150,150,150,150,150,150,150,150,150,150,150,150,150,150,150,150,150,150,150,150,150,150,150,150,150,150,150,150,150,150,150,150,150,150,150,150,150,150,150,150,150,150,150,150,150,150,150,150,150,150,150,150,150,
150,150,150,150,150,150,150,150,150,150,150,150,150,150,150,150,150,150,150,150,150,150,150,150,150,150,150,150,150,150,150,150,150,150,150,150,150,150,150,150,150,150,150,150,150,150,150,150,150,150,150,150,150,150,150,150,150,150,150,150,150,150,150,150,150,150,150,150,150,150,150,150,150,150,150,150,150,150,
150,150,150,150,150,150,150,150,150,150,150,150,150,150,150,150,150,150,150,150,150,150,150,150,150,150,150,150,150,150,150,150,150,150,150,150,150,150,150,150,150,150,150,150,150,150,150,150,150,150,150,150,150,150,150,150,150,150,150,150,150,150,150,150,150,150,150,150,150,150,150,150,150,150,150,150,150,150,
150,150,150,150,150,150,150,150,150,150,150,150,150,150,150,150,150,150,150,150,150,150,150,150,150,150,150,150,150,150,150,150,150,150,150,150,150,150,150,150,150,150,150,150,150,150,150,150,150,150,150,150,150,150,150,150,150,150,150,150,150,150,150,150,150,150,150,150,150,150,150,150,150,150,150,150,150,150,
150,150,150,150,150,150,150,150,150,150,150,150,150,150,150,150,150,150,150,150,150,150,150,150,150,150,150,150,150,150,150,150,150,150,150,150,150,150,150,150,150,150,150,150,150,150,150,150,150,150,150,150,150,150,150,150,150,150,150,150,150,150,150,150,150,150,150,150,150,150,150,150,150,150,150,150,150,150,
150,150,150,150,150,150,150,150,150,150,150,150,150,150,150,150,150,150,150,150,150,150,150,150,150,150,150,150,150,150,150,150,150,150,150,150,150,150,150,150,150,150,150,150,150,150,150,150,150,150,150,150,150,150,150,150,150,150,150,150,150,150,150,150,150,150,150,150,150,150,150,150,150,150,150,150,150,150,
150,150,150,150,150,150,150,150,150,150,150,150,150,150,150,150,150,150,150,150,150,150,150,150,150,150,150,150,150,150,150,150,150,150,150,150,150,150,150,150,150,150,150,150,150,150,150,150,150,150,150,150,150,150,150,150,150,150,150,150,150,150,150,150,150,150,150,150,150,150,150,150,150,150,150,150,150,150,
150,150,150,150,150,150,150,150,150,150,150,150,150,150,150,150,150,150,150,150,150,150,150,150,150,150,150,150,150,150,150,150,150,150,150,150,150,150,150,150,150,150,150,150,150,150,150,150,150,150,150,150,150,150,150,150,150,150,150,150,150,150,150,150,150,150,150,150,150,150,150,150,150,150,150,150,150,150,
150,150,150,150,150,150,150,150,150,150,150,150,150,150,150,150,150,150,150,150,150,150,150,150,150,150,150,150,150,150,150,150,150,150,150,150,150,150,150,150,150,150,150,150,150,150,150,150,150,150,150,150,150,150,150,150,150,150,150,150,150,150,150,150,150,150,150,150,150,150,150,150,150,150,150,150,150,150,
150,150,150,150,150,150,150,150,150,150,150,150,150,150,150,150,150,150,150,150,150,150,150,150,150,150,150,150,150,150,150,150,150,150,150,150,150,150,150,150,150,150,150,150,150,150,150,150,150,150,150,150,150,150,150,150,150,150,150,150,150,150,150,150,150,150,150,150,150,150,150,150,150,150,150,150,150,150,
150,150,150,150,150,150,150,150,150,150,150,150,150,150,150,150,150,150,150,150,150,150,150,150,150,150,150,150,150,150,150,150,150,150,150,150,150,150,150,150,150,150,150,150,150,150,150,150,150,150,150,150,150,150,150,150,150,150,150,150,150,150,150,150,150,150,150,150,150,150,150,150,150,150,150,150,150,150,
150,150,150,150,150,150,150,150,150,150,150,150,150,150,150,150,150,150,150,150,150,150,150,150,150,150,150,150,150,150,150,150,150,150,150,150,150,150,150,150,150,150,150,150,150,150,150,150,150,150,150,150,150,150,150,150,150,150,150,150,150,150,150,150,150,150,150,150,150,150,150,150,150,150,150,150,150,150,
150,150,150,150,150,150,150,150,150,150,150,150,150,150,150,150,150,150,150,150,150,150,150,150,150,150,150,150,150,150,150,150,150,150,150,150,150,150,150,150,150,150,150,150,150,150,150,150,150,150,150,150,150,150,150,150,150,150,150,150,150,150,150,150,150,150,150,150,150,150,150,150,150,150,150,150,150,150,
150,150,150,150,150,150,150,150,150,150,150,150,150,150,150,150,150,150,150,150,150,150,150,150,150,150,150,150,150,150,150,150,150,150,150,150,150,150,150,150,150,150,150,150,150,150,150,150,150,150,150,150,150,150,150,150,150,150,150,150,150,150,150,150,150,150,150,150,150,150,150,150,150,150,150,150,150,150,
150,150,150,150,150,150,150,150,150,150,150,150,150,150,150,150,150,150,150,150,150,150,150,150,150,150,150,150,150,150,150,150,150,150,150,150,150,150,150,150,150,150,150,150,150,150,150,150,150,150,150,150,150,150,150,150,150,150,150,150,150,150,150,150,150,150,150,150,150,150,150,150,150,150,150,150,150,150,
150,150,150,150,150,150,150,150,150,150,150,150,150,150,150,150,150,150,150,150,150,150,150,150,150,150,150,150,150,150,150,150,150,150,150,150,150,150,150,150,150,150,150,150,150,150,150,150,150,150,150,150,150,150,150,150,150,150,150,150,150,150,150,150,150,150,150,150,150,150,150,150,150,150,150,150,150,150,
150,150,150,150,150,150,150,150,150,150,150,150,150,150,150,150,150,150,150,150,150,150,150,150,150,150,150,150,150,150,150,150,150,150,150,150,150,150,150,150,150,150,150,150,150,150,150,150,150,150,150,150,150,150,150,150,150,150,150,150,150,150,150,150,150,150,150,150,150,150,150,150,150,150,150,150,150,150,
150,150,150,150,150,150,150,150,150,150,150,150,150,150,150,150,150,150,150,150,150,150,150,150,150,150,150,150,150,150,150,150,150,150,150,150,150,150,150,150,150,150,150,150,150,150,150,150,150,150,150,150,150,150,150,150,150,150,150,150,150,150,150,150,150,150,150,150,150,150,150,150,150,150,150,150,150,150,
150,150,150,150,150,150,150,150,150,150,150,150,150,150,150,150,150,150,150,150,150,150,150,150,150,150,150,150,150,150,150,150,150,150,150,150,150,150,150,150,150,150,150,150,150,150,150,150,150,150,150,150,150,150,150,150,150,150,150,150,150,150,150,150,150,150,150,150,150,150,150,150,150,150,150,150,150,150,
150,150,150,150,150,150,150,150,150,150,150,150,150,150,150,150,150,150,150,150,150,150,150,150,150,150,150,150,150,150,150,150,150,150,150,150,150,150,150,150,150,150,150,150,150,150,150,150,150,150,150,150,150,150,150,150,150,150,150,150,150,150,150,150,150,150,150,150,150,150,150,150,150,150,150,150,150,150,
150,150,150,150,150,150,150,150,150,150,150,150,150,150,150,150,150,150,150,150,150,150,150,150,150,150,150,150,150,150,150,150,150,150,150,150,150,150,150,150,150,150,150,150,150,150,150,150,150,150,150,150,150,150,150,150,150,150,150,150,150,150,150,150,150,150,150,150,150,150,150,150,150,150,150,150,150,150,
150,150,150,150,150,150,150,150,150,150,150,150,150,150,150,150,150,150,150,150,150,150,150,150,150,150,150,150,150,150,150,150,150,150,150,150,150,150,150,150,150,150,150,150,150,150,150,150,150,150,150,150,150,150,150,150,150,150,150,150,150,150,150,150,150,150,150,150,150,150,150,150,150,150,150,150,150,150,
150,150,150,150,150,150,150,150,150,150,150,150,150,150,150,150,150,150,150,150,150,150,150,150,150,150,150,150,150,150,150,150,150,150,150,150,150,150,150,150,150,150,150,150,150,150,150,150,150,150,150,150,150,150,150,150,150,150,150,150,150,150,150,150,150,150,150,150,150,150,150,150,150,150,150,150,150,150,
150,150,150,150,150,150,150,150,150,150,150,150,150,150,150,150,150,150,150,150,150,150,150,150,150,150,150,150,150,150,150,150,150,150,150,150,150,150,150,150,150,150,150,150,150,150,150,150,150,150,150,150,150,150,150,150,150,150,150,150,150,150,150,150,150,150,150,150,150,150,150,150,150,150,150,150,150,150,
150,150,150,150,150,150,150,150,150,150,150,150,150,150,150,150,150,150,150,150,150,150,150,150,150,150,150,150,150,150,150,150,150,150,150,150,150,150,150,150,150,150,150,150,150,150,150,150,150,150,150,150,150,150,150,150,150,150,150,150,150,150,150,150,150,150,150,150,150,150,150,150,150,150,150,150,150,150,
150,150,150,150,150,150,150,150,150,150,150,150,150,150,150,150,150,150,150,150,150,150,150,150,150,150,150,150,150,150,150,150,150,150,150,150,150,150,150,150,150,150,150,150,150,150,150,150,150,150,150,150,150,150,150,150,150,150,150,150,150,150,150,150,150,150,150,150,150,150,150,150,150,150,150,150,150,150,
150,150,150,150,150,150,150,150,150,150,150,150,150,150,150,150,150,150,150,150,150,150,150,150,150,150,150,150,150,150,150,150,150,150,150,150,150,150,150,150,150,150,150,150,150,150,150,150,150,150,150,150,150,150,150,150,150,150,150,150,150,150,150,150,150,150,150,150,150,150,150,150,150,150,150,150,150,150,
150,150,150,150,150,150,150,150,150,150,150,150,150,150,150,150,150,150,150,150,150,150,150,150,150,150,150,150,150,150,150,150,150,150,150,150,150,150,150,150,150,150,150,150,150,150,150,150,150,150,150,150,150,150,150,150,150,150,150,150,150,150,150,150,150,150,150,150,150,150,150,150,150,150,150,150,150,150,
150,150,150,150,150,150,150,150,150,150,150,150,150,150,150,150,150,150,150,150,150,150,150,150,150,150,150,150,150,150,150,150,150,150,150,150,150,150,150,150,150,150,150,150,150,150,150,150,150,150,150,150,150,150,150,150,150,150,150,150,150,150,150,150,150,150,150,150,150,150,150,150,150,150,150,150,150,150,
150,150,150,150,150,150,150,150,150,150,150,150,150,150,150,150,150,150,150,150,150,150,150,150,150,150,150,150,150,150,150,150,150,150,150,150,150,150,150,150,150,150,150,150,150,150,150,150,150,150,150,150,150,150,150,150,150,150,150,150,150,150,150,150,150,150,150,150,150,150,150,150,150,150,150,150,150,150,
150,150,150,150,150,150,150,150,150,150,150,150,150,150,150,150,150,150,150,150,150,150,150,150,150,150,150,150,150,150,150,150,150,150,150,150,150,150,150,150,150,150,150,150,150,150,150,150,150,150,150,150,150,150,150,150,150,150,150,150,150,150,150,150,150,150,150,150,150,150,150,150,150,150,150,150,150,150,
150,150,150,150,150,150,150,150,150,150,150,150,150,150,150,150,150,150,150,150,150,150,150,150,150,150,150,150,150,150,150,150,150,150,150,150,150,150,150,150,150,150,150,150,150,150,150,150,150,150,150,150,150,150,150,150,150,150,150,150,150,150,150,150,150,150,150,150,150,150,150,150,150,150,150,150,150,150,
150,150,150,150,150,150,150,150,150,150,150,150,150,150,150,150,150,150,150,150,150,150,150,150,150,150,150,150,150,150,150,150,150,150,150,150,150,150,150,150,150,150,150,150,150,150,150,150,150,150,150,150,150,150,150,150,150,150,150,150,150,150,150,150,150,150,150,150,150,150,150,150,150,150,150,150,150,150,
150,150,150,150,150,150,150,150,150,150,150,150,150,150,150,150,150,150,150,150,150,150,150,150,150,150,150,150,150,150,150,150,150,150,150,150,150,150,150,150,150,150,150,150,150,150,150,150,150,150,150,150,150,150,150,150,150,150,150,150,150,150,150,150,150,150,150,150,150,150,150,150,150,150,150,150,150,150,
150,150,150,150,150,150,150,150,150,150,150,150,150,150,150,150,150,150,150,150,150,150,150,150,150,150,150,150,150,150,150,150,150,150,150,150,150,150,150,150,150,150,150,150,150,150,150,150,150,150,150,150,150,150,150,150,150,150,150,150,150,150,150,150,150,150,150,150,150,150,150,150,150,150,150,150,150,150,
150,150,150,150,150,150,150,150,150,150,150,150,150,150,150,150,150,150,150,150,150,150,150,150,150,150,150,150,150,150,150,150,150,150,150,150,150,150,150,150,150,150,150,150,150,150,150,150,150,150,150,150,150,150,150,150,150,150,150,150,150,150,150,150,150,150,150,150,150,150,150,150,150,150,150,150,150,150,
150,150,150,150,150,150,150,150,150,150,150,150,150,150,150,150,150,150,150,150,150,150,150,150,150,150,150,150,150,150,150,150,150,150,150,150,150,150,150,150,150,150,150,150,150,150,150,150,150,150,150,150,150,150,150,150,150,150,150,150,150,150,150,150,150,150,150,150,150,150,150,150,150,150,150,150,150,150,
150,150,150,150,150,150,150,150,150,150,150,150,150,150,150,150,150,150,150,150,150,150,150,150,150,150,150,150,150,150,150,150,150,150,150,150,150,150,150,150,150,150,150,150,150,150,150,150,150,150,150,150,150,150,150,150,150,150,150,150,150,150,150,150,150,150,150,150,150,150,150,150,150,150,150,150,150,150
</data>
 </layer>
 <objectgroup id="19" name="PlantTeleport" visible="0">
  <object id="431" x="696.333" y="1079.67" width="23.6667" height="24"/>
  <object id="432" x="960" y="381" width="26" height="26"/>
  <object id="433" x="358.667" y="312" width="25.3333" height="26.6667"/>
  <object id="434" x="216" y="286" width="28" height="34"/>
  <object id="435" x="246" y="438" width="22" height="30"/>
  <object id="436" x="258" y="698" width="32" height="26"/>
  <object id="437" x="32" y="626" width="28" height="28"/>
  <object id="438" x="842" y="1466" width="28" height="34"/>
  <object id="439" x="74" y="1594" width="32" height="34"/>
  <object id="442" x="898" y="1704" width="40" height="28"/>
  <object id="443" x="1292" y="1288" width="28" height="40"/>
  <object id="444" x="1342" y="860" width="26" height="30"/>
  <object id="445" x="1178" y="242" width="32" height="30"/>
 </objectgroup>
 <objectgroup id="20" name="Spawnpoints" visible="0">
  <object id="450" name="Spawn0" x="571.75" y="969.75">
   <point/>
  </object>
  <object id="451" name="Spawn1" x="577.75" y="1003">
   <point/>
  </object>
  <object id="452" name="Spawn2" x="584" y="1026">
   <point/>
  </object>
  <object id="453" name="Spawn3" x="615.75" y="1030">
   <point/>
  </object>
  <object id="454" name="Spawn4" x="649.25" y="1031.75">
   <point/>
  </object>
  <object id="455" name="Spawn5" x="686.25" y="1030.75">
   <point/>
  </object>
  <object id="456" name="Spawn6" x="719.75" y="1025.5">
   <point/>
  </object>
  <object id="457" name="Spawn7" x="719.75" y="990.75">
   <point/>
  </object>
  <object id="458" name="Spawn8" x="719" y="950.75">
   <point/>
  </object>
  <object id="459" name="Spawn9" x="701.75" y="921.5">
   <point/>
  </object>
  <object id="460" name="Spawn10" x="671.75" y="919.5">
   <point/>
  </object>
  <object id="461" name="Spawn11" x="637.75" y="918">
   <point/>
  </object>
  <object id="462" name="Spawn12" x="613.75" y="919.5">
   <point/>
  </object>
  <object id="463" name="Spawn13" x="590.25" y="922.25">
   <point/>
  </object>
  <object id="464" name="Spawn14" x="573.75" y="946">
   <point/>
  </object>
 </objectgroup>
 <objectgroup id="21" name="Tasks">
  <object id="470" name="Task0" x="95.6364" y="478" width="47.2727" height="25.2727"/>
  <object id="471" name="Task1" x="1368" y="232.25" width="41.75" height="54.5"/>
  <object id="472" name="Task2" x="936" y="608.875" width="42.375" height="39"/>
  <object id="473" name="Task4" x="576.083" y="1345.74" width="22.5" height="18.8864"/>
  <object id="474" name="Task3" x="168.083" y="1322.08" width="70.25" height="45"/>
  <object id="475" name="Task5" x="477.333" y="1695.67" width="50.6667" height="28.6667"/>
  <object id="476" name="Task6" x="1272" y="697.5" width="22.75" height="19.25"/>
  <object id="477" name="Task7" x="432" y="1345.82" width="23.4545" height="19.2727"/>
  <object id="478" name="Task8" x="791.273" y="1377.09" width="14.7273" height="15.4545"/>
  <object id="479" name="Task9" x="743.75" y="1326.5" width="20" height="27.25"/>
  <object id="480" name="Task10" x="96" y="956.545" width="11.8182" height="13.8182"/>
  <object id="481" name="Task11" x="503.875" y="1345.88" width="23.375" height="19.125"/>
  <object id="482" name="Task12" x="527.818" y="1778.91" width="16.3636" height="21.0909"/>
  <object id="483" name="Task13" x="1204.5" y="1308.5" width="24.75" height="22.5"/>
  <object id="484" name="Task14" x="1007.09" y="126.545" width="18.3636" height="16.1818"/>
  <object id="485" name="Task15" x="1080" y="136" width="42.25" height="32"/>
  <object id="486" name="Task16" x="336" y="44.75" width="48" height="13.75"/>
  <object id="487" name="Task17" x="528.5" y="110.75" width="34" height="56.25"/>
  <object id="488" name="Task18" x="504.958" y="31.4583" width="17.75" height="17"/>
  <object id="490" name="Task19" x="1104" y="1750.5" width="34" height="24.5"/>
  <object id="492" name="Task20" x="168.545" y="836.909" width="47.6364" height="13.0909"/>
  <object id="494" name="Task21" x="1177" y="1300" width="17" height="42.125"/>
  <object id="495" name="Task22" x="815.25" y="1110.25" width="16.5" height="17"/>
  <object id="496" name="Task23" x="22.6667" y="34" width="16" height="13.6667"/>
 </objectgroup>
 <objectgroup id="25" name="EmergencyMeeting">
  <object id="569" x="574" y="913" width="145" height="113"/>
 </objectgroup>
 <layer id="18" name="MagicMushroom" width="78" height="78">
  <data encoding="csv">
0,0,0,0,0,0,0,0,0,0,154,154,0,0,0,0,0,0,0,0,0,0,0,0,0,0,0,0,0,0,0,0,0,0,0,0,0,154,153,154,154,154,154,155,153,154,153,154,154,154,154,155,153,154,154,154,154,154,153,0,0,0,0,0,0,0,0,0,0,0,0,0,0,0,0,0,0,0,
0,0,0,0,0,0,0,0,0,0,0,0,0,0,0,0,0,0,0,0,0,0,0,0,0,0,0,0,0,0,0,0,0,0,0,0,0,0,0,0,0,0,0,0,0,0,0,0,0,0,0,0,0,0,0,0,0,0,154,0,0,0,0,0,0,0,0,0,0,0,0,0,0,0,0,0,0,0,
0,0,0,0,0,0,0,0,0,0,0,0,0,0,0,0,0,0,0,0,0,0,0,0,0,0,0,0,0,0,0,0,0,0,0,0,0,0,0,0,0,0,145,0,0,0,0,0,0,0,0,0,0,0,0,0,0,0,155,0,0,0,0,0,0,0,0,0,0,0,0,0,0,0,0,0,0,0,
0,0,0,0,0,0,0,0,0,0,0,0,0,0,0,0,0,0,0,0,0,0,0,0,0,0,0,0,0,0,0,0,0,0,0,0,0,0,0,0,0,0,0,0,0,0,0,0,0,0,0,0,0,0,0,0,0,0,0,0,0,0,0,0,0,0,0,0,0,0,0,0,0,0,0,0,0,0,
0,0,0,0,0,0,0,0,0,0,0,0,0,0,0,0,0,0,0,0,0,0,0,0,0,0,0,0,0,0,0,0,0,0,0,0,0,0,0,0,0,0,0,0,0,0,0,0,0,0,0,0,0,0,0,0,0,0,0,0,0,0,0,0,0,0,0,0,0,0,0,0,0,0,0,0,0,0,
0,0,0,0,0,0,0,0,0,0,0,0,0,0,0,0,0,0,146,0,0,0,0,0,0,0,0,0,0,0,0,0,0,0,0,0,0,0,0,0,0,0,0,0,0,0,0,0,0,0,0,0,0,0,0,0,0,0,0,0,0,0,0,0,0,0,0,0,0,0,0,0,0,0,0,0,0,0,
154,0,0,0,0,0,0,0,0,0,0,0,0,0,0,0,0,0,0,0,0,0,0,0,0,0,0,0,0,0,145,0,0,0,0,0,0,0,0,0,0,0,0,0,0,0,0,0,0,0,0,0,0,0,0,0,0,0,0,0,0,0,149,0,0,0,0,0,0,0,0,0,0,0,0,0,0,0,
154,0,0,0,145,0,0,0,0,0,0,0,0,0,0,0,0,0,0,0,152,0,0,0,0,0,0,0,0,0,0,0,0,0,0,0,0,0,0,0,0,0,0,0,0,0,0,0,0,0,0,0,0,0,0,0,0,0,0,0,0,0,0,0,0,0,0,0,0,0,0,0,0,0,0,0,0,0,
154,0,0,0,0,0,0,0,0,0,0,0,0,0,0,0,0,0,0,0,0,0,0,0,0,0,0,0,0,0,0,0,0,0,0,0,0,0,0,0,0,0,0,0,0,0,0,0,0,0,0,0,0,0,0,0,0,0,0,0,0,0,0,0,0,0,0,0,0,0,0,0,0,0,0,0,0,0,
0,0,0,0,0,0,0,0,0,0,0,0,0,0,0,0,0,0,0,0,0,0,0,0,0,0,0,0,0,0,148,0,0,0,0,0,0,0,0,0,0,0,0,0,0,0,0,0,0,0,0,0,0,0,0,0,0,0,0,0,0,0,0,0,0,0,0,0,0,0,0,0,0,0,0,0,0,0,
0,0,0,0,0,0,0,0,0,0,0,0,0,0,0,0,0,0,0,0,0,0,0,0,0,0,0,0,0,0,0,0,0,0,0,0,0,0,0,0,0,0,0,0,0,0,0,0,0,149,0,0,0,0,0,0,0,0,0,0,0,0,0,0,0,0,0,0,0,0,0,0,0,0,0,0,0,0,
0,0,0,0,0,0,0,0,0,0,0,0,0,0,0,0,0,0,0,0,0,0,0,0,0,0,0,0,0,0,0,0,0,0,0,0,0,0,0,0,0,0,0,0,0,0,0,0,0,0,0,0,0,0,0,0,0,0,0,0,0,0,0,0,0,0,0,0,0,0,0,0,0,0,0,0,0,0,
0,0,0,0,0,0,0,0,0,148,0,0,0,0,0,0,0,0,0,0,0,0,0,0,0,0,0,0,0,0,0,0,0,0,0,0,0,0,0,0,0,0,0,0,0,0,0,0,0,0,0,0,0,0,0,0,0,0,0,0,0,0,0,0,0,0,0,0,0,0,0,0,0,0,0,0,0,0,
0,0,0,0,0,0,0,0,0,0,0,0,0,0,0,145,0,0,0,0,0,0,0,0,0,0,0,0,0,0,0,0,0,0,0,0,0,0,0,0,0,0,0,0,0,0,0,0,0,0,0,0,0,0,0,0,0,0,0,0,0,0,0,0,0,0,0,0,0,0,0,0,0,0,0,0,0,0,
0,0,0,0,0,0,0,0,0,0,0,0,0,0,0,0,0,0,0,0,0,0,0,0,0,0,0,0,0,0,0,0,0,0,0,0,0,0,0,0,0,0,0,0,0,0,0,0,0,0,0,0,0,0,0,0,0,0,0,0,0,0,0,0,0,0,0,0,0,0,0,0,0,0,0,0,0,0,
0,0,0,0,0,0,0,0,0,0,0,0,0,0,0,0,0,0,0,0,0,0,0,0,0,0,146,0,0,0,0,147,0,0,0,0,0,0,0,0,0,0,0,0,0,0,0,0,0,0,0,0,0,0,0,0,0,0,0,0,0,0,0,0,0,0,0,0,0,0,0,0,0,0,0,0,0,0,
0,0,0,0,0,0,0,0,0,0,0,0,0,0,0,0,0,0,0,0,0,0,0,0,0,0,0,0,0,0,0,0,0,0,0,0,0,0,0,0,146,0,0,0,0,0,0,0,0,0,0,0,0,0,0,0,0,0,0,0,0,0,0,0,0,0,0,0,0,0,0,0,0,0,0,0,0,0,
0,0,0,0,0,0,0,0,0,0,0,0,0,0,0,0,0,0,0,0,0,149,0,0,0,0,0,0,0,0,0,0,0,0,0,0,0,0,0,0,0,0,0,0,0,0,0,0,0,0,0,0,0,0,0,0,0,0,0,0,0,0,146,0,0,0,0,0,0,0,0,0,0,0,0,0,0,0,
154,0,0,0,0,0,0,0,0,0,151,0,0,0,0,0,0,0,0,0,0,0,0,0,0,0,0,0,0,0,0,0,0,0,0,0,0,0,0,0,0,0,0,0,0,0,0,0,0,0,0,0,0,0,0,0,0,0,0,0,0,0,0,0,0,0,0,0,0,0,0,0,0,0,0,0,0,0,
153,0,0,0,0,0,0,0,0,0,0,0,0,0,0,0,0,0,0,0,0,0,0,0,0,0,0,0,0,0,0,0,0,0,0,0,0,0,0,0,0,0,0,0,0,0,0,0,0,0,0,0,0,0,0,0,0,0,0,0,0,0,0,0,0,0,0,0,0,0,0,0,0,0,0,0,0,0,
153,0,0,0,0,0,0,0,0,0,0,0,0,0,0,0,0,0,0,0,0,0,0,0,0,0,0,0,0,0,0,0,0,0,0,0,0,0,0,0,0,0,148,0,0,0,0,0,0,0,0,0,0,0,0,0,0,0,0,0,0,0,0,0,0,0,0,0,0,0,0,0,0,0,0,0,0,0,
153,0,0,0,0,0,0,0,0,0,0,0,0,0,0,0,0,0,0,0,0,0,0,0,0,0,0,0,0,0,0,0,0,0,0,0,0,0,0,0,0,0,0,0,0,0,0,0,0,0,0,0,0,0,0,0,0,0,0,0,0,0,0,0,0,0,0,0,0,0,0,0,0,0,0,0,0,0,
154,0,0,0,0,0,0,0,0,0,0,0,0,0,0,0,0,0,0,0,0,0,0,0,0,0,0,0,0,0,0,0,0,0,0,0,0,0,0,0,0,0,0,0,0,0,0,0,0,0,0,0,0,0,0,0,0,0,0,0,0,0,0,0,0,0,0,0,0,0,0,0,0,0,0,0,0,0,
154,0,0,0,0,0,0,0,0,0,0,0,0,0,0,0,0,0,0,0,0,0,0,0,0,0,0,0,0,0,0,151,0,0,0,0,145,0,0,0,0,0,0,0,0,0,0,0,0,0,0,0,0,0,0,0,0,0,0,0,0,0,0,0,0,0,0,0,0,0,0,0,0,0,0,0,0,0,
154,0,0,0,0,0,0,0,0,0,0,0,0,0,0,0,0,0,0,145,0,147,0,0,0,148,0,0,0,0,0,0,0,0,0,0,0,0,0,0,0,0,0,0,0,0,0,0,0,0,0,0,0,0,0,0,0,0,0,0,0,0,0,0,0,0,0,0,0,0,0,0,0,0,0,0,0,0,
154,0,0,0,0,0,0,0,0,0,0,0,0,0,0,0,0,0,0,0,0,0,0,0,0,0,0,0,0,0,0,0,0,0,0,0,0,0,0,0,0,0,0,0,0,0,0,0,0,0,0,0,0,0,0,0,0,0,0,0,0,0,152,0,0,0,0,0,0,0,0,0,0,0,0,0,0,0,
153,152,0,0,0,0,0,0,0,0,0,0,0,0,0,0,0,0,0,0,0,0,0,0,0,0,0,0,0,0,0,0,0,0,0,0,0,0,0,0,0,0,0,0,0,0,0,0,0,0,0,0,0,0,0,0,0,0,0,0,0,0,0,0,0,0,0,0,0,0,0,0,0,0,0,0,0,0,
154,0,0,0,0,0,0,0,0,0,0,0,0,0,0,0,0,0,0,0,0,0,0,0,0,0,0,0,0,0,0,0,0,0,0,0,0,0,0,0,0,0,0,0,0,0,0,0,0,0,0,0,0,0,0,0,0,0,0,0,0,0,0,0,0,0,0,0,0,0,0,0,0,0,0,0,0,0,
155,0,0,0,0,0,0,0,0,0,0,0,0,152,0,0,0,0,0,0,0,0,0,0,0,0,0,0,0,0,0,0,0,146,0,147,0,0,0,0,0,0,0,0,0,0,0,0,0,0,0,0,0,0,0,0,0,0,0,0,0,0,0,0,0,0,0,0,0,0,0,0,0,0,0,0,0,0,
154,0,0,0,0,0,0,0,0,0,0,145,0,0,0,0,0,0,0,0,0,0,0,0,0,0,0,0,0,0,0,0,0,0,0,0,0,0,0,0,0,0,0,0,0,0,0,0,0,0,0,0,0,0,0,0,0,0,0,0,0,0,0,0,0,0,0,0,0,0,0,0,0,0,0,0,0,0,
153,0,0,0,0,0,0,0,0,0,0,0,0,0,0,0,0,0,0,0,0,0,0,145,0,0,0,0,0,0,0,0,0,0,0,0,0,0,0,0,0,0,0,0,0,0,0,0,0,0,0,0,0,0,0,0,0,0,0,0,0,0,0,0,0,0,0,0,0,0,0,0,0,0,0,0,0,0,
154,0,0,0,0,0,0,0,0,0,0,0,0,0,147,0,0,0,0,0,0,0,0,0,0,0,0,0,0,0,0,148,0,0,0,0,0,0,0,0,0,0,0,0,0,0,0,0,0,0,0,0,0,0,0,0,0,0,0,0,0,0,0,0,0,0,0,0,0,0,0,0,0,0,0,0,0,0,
154,0,0,0,0,0,0,0,0,0,0,0,0,0,0,0,0,0,0,0,0,0,0,0,0,0,0,0,0,0,0,0,0,0,0,0,0,0,0,0,0,0,0,0,0,0,0,0,0,0,0,0,0,0,0,0,0,0,0,0,0,0,0,0,0,0,0,0,0,0,0,0,0,0,0,0,0,0,
154,0,0,0,0,0,0,0,0,0,0,0,0,0,0,0,0,0,0,0,0,0,0,0,0,0,0,0,0,0,0,151,0,0,0,0,0,0,0,0,0,0,0,0,0,0,0,0,0,0,0,0,0,0,0,0,0,0,0,0,0,0,0,0,0,0,0,0,0,0,0,0,0,0,0,0,0,0,
154,0,0,145,0,0,0,0,0,0,0,0,0,0,0,0,0,0,0,0,0,0,0,0,0,0,0,0,0,0,0,0,0,0,0,0,0,0,0,0,0,0,0,0,0,0,0,0,0,0,0,0,0,0,0,0,0,0,0,0,0,0,0,0,0,0,0,0,0,0,0,0,0,0,0,0,0,0,
155,0,0,0,0,0,0,0,0,0,0,0,0,0,0,0,0,0,0,0,0,0,0,0,146,0,0,0,0,0,0,0,0,147,0,0,0,0,0,0,0,0,0,0,0,0,0,0,0,0,0,0,0,0,0,0,0,0,0,0,0,0,0,0,0,0,0,0,0,0,0,0,0,0,0,0,0,0,
154,0,0,0,0,0,0,0,0,0,0,0,0,0,0,0,0,0,0,0,0,0,0,0,0,0,0,0,0,0,0,0,0,0,0,0,0,0,0,0,0,0,0,0,0,0,0,0,0,0,0,0,0,0,0,0,147,0,0,0,0,0,0,0,0,0,0,0,0,0,0,0,0,0,0,0,0,0,
153,0,147,0,0,0,0,151,0,0,0,0,0,0,0,0,0,0,0,0,0,0,0,0,0,0,0,0,0,0,0,0,0,0,0,0,0,0,0,0,0,0,0,0,0,0,0,0,0,0,0,0,0,0,0,0,0,0,0,0,0,0,0,0,0,152,0,0,0,0,0,0,0,0,0,0,0,0,
154,0,0,0,0,0,0,0,0,0,0,0,0,0,147,0,0,0,0,0,151,0,0,0,0,0,0,0,0,0,0,0,0,0,0,0,0,145,0,0,0,0,0,0,0,0,0,0,0,0,0,0,0,0,0,0,0,0,0,0,0,0,0,0,0,0,0,0,0,0,0,0,0,0,0,0,0,0,
153,0,0,0,0,0,0,0,0,0,0,0,0,0,0,0,0,0,0,0,0,0,0,0,0,0,0,0,0,0,0,0,0,0,0,0,0,0,0,0,0,0,0,0,0,0,0,0,0,0,0,0,0,0,0,0,0,0,0,0,0,0,0,0,0,0,0,0,0,0,0,0,0,0,0,0,0,0,
154,0,0,0,0,0,0,0,0,0,0,0,0,0,0,0,0,0,0,0,0,0,0,0,0,0,0,0,0,0,0,0,0,0,0,0,0,0,0,0,0,0,0,0,0,0,0,145,0,0,0,0,0,0,0,0,0,0,0,0,0,0,0,0,0,0,0,0,0,0,0,0,0,0,0,0,0,0,
0,0,0,0,0,0,0,0,0,0,0,0,0,0,0,0,0,0,0,0,0,0,0,0,0,0,0,0,0,0,0,0,0,0,0,0,0,0,0,0,0,0,0,0,0,0,0,0,0,0,0,0,0,0,0,0,0,0,0,0,0,0,0,0,0,0,0,0,0,0,0,0,0,0,0,0,0,0,
0,0,0,0,0,0,0,0,0,0,0,0,0,0,0,0,0,0,0,0,0,0,0,0,0,0,0,0,0,0,0,0,0,0,0,0,0,0,0,0,0,0,0,0,0,0,0,0,149,0,0,0,0,0,0,0,0,0,0,0,0,0,0,0,0,0,0,0,0,0,0,0,0,0,0,0,0,0,
0,0,0,0,0,0,0,0,0,0,0,0,0,0,0,0,0,0,0,0,0,0,0,0,0,0,0,0,0,0,0,0,0,0,0,0,0,0,0,0,0,0,0,0,0,0,0,0,0,0,0,0,0,0,0,0,0,0,0,0,0,0,0,0,0,0,0,0,0,0,0,0,0,0,0,0,0,0,
0,0,0,0,0,0,0,0,0,0,0,0,0,0,0,0,0,0,0,0,0,0,0,0,0,0,0,0,0,0,0,0,0,0,0,0,0,0,0,0,0,0,0,0,0,0,0,0,0,0,0,0,0,0,0,0,0,0,0,0,0,0,0,0,0,0,0,0,0,0,0,0,0,0,0,0,0,0,
0,0,0,0,0,0,0,0,0,0,0,0,0,0,0,0,0,152,0,0,0,0,0,0,0,0,0,0,0,152,0,0,0,0,0,0,0,0,0,0,0,0,0,151,0,0,0,147,0,0,0,0,0,0,0,0,0,0,0,0,0,0,0,0,0,0,0,0,0,0,0,0,0,0,0,0,0,0,
0,0,0,0,0,0,0,0,0,0,0,0,0,0,149,0,0,0,0,0,0,148,0,0,0,0,0,0,0,0,0,0,0,0,0,0,0,0,0,0,0,0,0,0,0,0,0,0,0,0,0,0,0,0,0,0,0,0,0,147,0,0,0,0,0,0,0,0,0,0,0,0,0,0,0,0,0,0,
0,0,0,0,0,0,0,0,0,0,0,0,0,0,0,0,0,0,0,0,0,0,0,0,0,0,0,0,0,0,0,0,0,0,0,0,0,0,0,0,0,0,0,0,0,152,0,0,0,0,0,0,0,0,0,0,0,0,0,0,0,0,0,0,0,0,0,0,0,0,0,0,0,0,0,0,0,0,
154,0,0,0,0,0,0,0,0,0,0,0,0,0,0,0,0,0,0,0,0,0,0,0,0,0,0,0,0,0,0,0,0,0,0,0,0,0,0,0,0,0,0,0,0,0,0,0,0,0,0,0,0,0,0,0,0,0,0,0,0,0,0,0,0,0,0,0,0,0,0,0,0,0,0,0,0,0,
154,0,0,0,0,0,0,0,0,0,0,0,0,0,0,145,0,0,0,0,0,0,0,0,0,0,0,0,0,0,0,0,0,0,0,0,0,0,0,0,0,0,0,0,0,0,0,0,0,0,0,0,0,0,0,0,0,0,0,0,0,0,0,0,0,0,0,0,0,0,0,0,0,0,0,0,0,0,
154,0,0,0,0,0,0,0,0,0,0,0,0,0,0,0,0,0,0,0,0,0,0,0,0,0,0,0,0,0,0,0,0,0,0,0,0,0,0,0,0,0,0,0,0,0,0,0,0,0,0,0,0,0,0,0,0,0,0,0,0,0,0,0,0,0,0,0,0,0,0,0,0,0,0,0,0,0,
153,0,0,0,0,0,0,0,0,0,0,0,0,0,0,0,0,0,0,0,0,0,0,0,0,0,0,0,0,0,0,0,0,0,0,0,0,0,0,0,0,0,0,0,0,0,0,0,0,0,0,0,0,0,0,0,0,0,0,0,0,0,0,0,0,0,0,0,0,0,0,0,0,0,0,0,0,0,
154,0,0,0,0,0,0,0,0,0,0,0,0,0,0,0,0,0,0,0,0,0,0,0,0,0,0,0,0,0,0,0,0,0,0,0,0,0,0,0,0,0,0,0,0,0,0,151,0,0,0,0,0,0,147,0,0,0,0,0,0,0,0,0,0,0,0,0,0,0,0,0,0,0,0,0,0,0,
154,0,0,0,0,0,0,0,0,0,0,0,0,0,0,0,0,0,0,0,0,0,147,0,0,0,0,0,0,0,0,0,0,0,0,0,0,0,0,0,0,0,0,0,0,0,0,0,0,0,0,0,0,0,0,0,0,0,0,0,0,0,0,0,0,0,145,0,0,0,0,0,0,0,0,0,0,0,
153,0,149,0,0,0,0,0,0,0,0,0,0,0,0,0,0,0,0,0,0,0,0,0,0,0,0,0,0,0,0,0,0,0,0,0,0,0,0,0,0,0,0,0,0,0,0,0,0,0,0,0,0,0,148,0,0,0,0,0,0,0,0,0,0,0,0,0,0,0,0,0,0,0,0,0,0,0,
154,0,0,0,0,0,0,0,0,0,0,0,0,147,0,0,0,0,0,0,0,0,0,0,0,0,0,0,0,0,0,0,0,0,0,0,0,0,0,0,0,0,0,0,0,0,0,0,0,0,0,0,0,0,0,0,0,0,0,0,0,0,0,0,0,0,0,0,0,0,0,0,0,0,0,0,0,0,
155,0,0,0,0,0,0,0,0,0,0,0,0,0,0,0,0,0,0,0,0,0,0,0,0,0,0,0,0,0,0,0,0,0,0,0,0,0,0,0,0,0,0,0,0,0,0,0,0,0,0,0,0,0,0,0,0,0,0,0,0,0,0,0,0,0,0,0,0,0,0,0,0,0,0,0,0,0,
154,0,0,0,0,0,0,0,0,0,0,0,0,0,0,0,0,0,0,0,0,0,0,0,0,0,0,0,0,0,0,0,0,0,0,0,0,0,0,0,0,0,0,0,0,0,0,0,0,0,0,0,0,0,0,0,0,0,0,0,0,0,0,0,0,0,0,0,0,0,0,0,0,0,0,0,0,0,
154,0,0,0,0,0,0,0,0,0,0,0,0,0,0,0,0,0,0,0,0,0,0,0,0,0,0,0,0,0,0,0,0,0,0,0,0,0,0,0,0,0,0,0,0,0,0,0,0,0,0,0,0,0,0,0,0,0,0,0,0,0,0,0,0,0,0,0,0,0,0,0,0,0,0,0,0,0,
153,0,0,0,0,0,0,0,0,0,0,0,0,0,0,0,0,0,0,0,0,0,0,0,0,0,0,0,0,0,0,0,0,0,0,0,0,0,0,0,0,0,0,0,0,0,0,0,0,0,0,0,0,0,0,0,0,0,0,0,0,0,0,0,0,0,0,0,0,0,0,0,0,0,0,0,0,0,
154,153,0,0,0,0,0,0,0,0,0,0,0,0,0,0,0,0,0,0,0,0,0,0,0,0,0,0,0,0,0,0,0,0,0,0,0,0,0,0,0,0,0,0,0,0,0,0,0,0,0,0,0,0,0,0,0,0,0,0,0,0,0,0,0,0,0,0,0,0,0,0,0,0,0,0,0,0,
154,0,0,0,0,0,0,0,0,0,0,0,0,0,0,0,0,0,0,0,0,0,0,0,147,0,0,0,0,0,0,146,0,0,0,145,0,0,0,0,0,0,0,0,0,0,0,0,0,0,0,0,0,0,0,0,0,0,0,0,0,0,0,0,0,0,0,0,0,0,0,0,0,0,0,0,0,0,
154,0,0,0,0,0,0,0,0,0,0,0,0,0,0,0,0,0,0,0,0,0,0,0,0,0,0,0,0,0,0,0,0,0,0,0,0,0,0,0,0,0,0,0,0,0,0,0,0,0,0,0,0,0,0,0,0,0,0,0,0,0,0,0,0,0,0,0,0,0,0,0,0,0,0,0,0,0,
153,0,0,0,0,0,0,0,0,0,0,0,0,146,0,0,0,0,151,0,0,0,0,0,0,0,0,0,145,0,0,0,0,0,0,0,0,0,0,0,0,0,0,0,0,0,0,0,0,0,0,0,0,0,0,0,0,0,0,0,0,0,0,0,0,0,0,0,0,0,0,0,0,0,0,0,0,0,
153,0,0,0,0,0,0,0,0,0,0,0,0,0,0,0,0,0,0,0,0,0,0,0,0,0,0,0,0,0,0,0,0,0,0,0,0,0,0,0,0,0,0,0,0,0,0,0,145,0,0,0,0,0,0,0,0,0,0,0,0,0,0,0,0,0,0,0,0,0,0,0,0,0,0,0,0,0,
153,0,0,0,0,0,0,0,0,0,0,0,0,0,0,0,0,0,0,0,0,0,0,0,0,0,0,0,0,0,0,0,0,0,0,0,0,0,0,0,0,0,0,0,0,0,0,0,0,0,0,0,0,0,0,0,0,0,0,0,0,0,0,0,0,0,0,0,0,0,0,0,0,0,0,0,0,0,
153,0,0,151,0,0,0,0,0,0,0,0,0,0,0,0,0,0,0,0,0,0,0,0,0,0,0,0,0,0,0,0,0,0,0,0,0,0,0,0,0,0,0,0,0,0,0,0,0,0,0,0,0,0,0,0,0,0,0,0,0,0,0,0,0,0,0,0,0,0,0,0,0,0,0,0,0,0,
154,0,0,0,0,0,0,0,0,0,0,0,0,0,0,0,0,0,0,0,0,0,0,0,0,0,0,0,0,0,0,0,0,0,0,0,0,0,0,0,0,0,0,0,0,0,0,0,0,0,0,0,0,0,0,0,0,0,0,0,0,0,0,0,0,0,0,0,0,0,0,0,0,0,0,0,0,0,
154,0,0,0,0,0,0,0,0,0,0,0,0,0,0,0,0,0,0,0,0,0,0,0,0,0,0,0,0,0,0,0,0,0,0,0,0,0,0,0,0,0,0,0,0,0,0,0,0,0,0,0,0,0,0,0,0,0,0,0,0,0,0,0,0,0,0,0,0,0,0,0,0,0,0,0,0,0,
155,0,0,0,0,0,0,0,0,0,0,0,0,0,0,0,0,0,0,0,151,0,0,0,0,0,0,0,0,0,0,0,0,0,0,0,0,0,0,0,0,0,0,155,155,155,0,0,0,0,0,0,0,0,0,0,0,0,0,0,0,0,0,0,0,0,0,0,0,0,0,0,0,0,0,0,0,0,
153,0,145,0,0,0,0,0,0,0,0,0,0,0,0,0,0,0,0,0,0,0,0,0,0,0,0,0,0,0,0,0,0,0,0,0,0,0,0,0,155,155,155,155,0,0,0,147,0,0,0,0,0,0,0,0,0,0,0,0,0,0,0,0,0,0,0,0,0,0,0,0,0,0,0,0,0,0,
154,0,0,0,0,0,0,0,0,149,0,0,0,0,0,0,0,0,0,0,0,0,0,0,0,0,0,0,0,0,0,0,0,0,0,0,0,0,145,0,0,0,0,0,0,0,0,0,0,0,0,0,0,0,0,0,0,0,0,0,0,0,0,0,0,0,0,0,0,0,0,0,0,0,0,0,0,0,
154,0,0,0,0,0,0,0,0,0,0,0,0,0,0,0,0,0,0,0,0,0,0,0,0,0,0,0,0,0,0,0,146,0,0,0,0,0,0,0,0,0,0,0,0,0,0,0,0,0,0,0,0,0,0,0,0,0,0,0,0,0,0,0,0,0,0,0,0,0,0,0,0,0,0,0,0,0,
154,0,0,0,0,0,0,0,0,0,0,0,0,0,0,0,0,0,0,0,0,0,0,0,0,0,0,0,0,0,0,0,0,0,0,0,0,0,0,0,0,0,0,0,0,0,0,0,0,0,0,0,0,0,0,0,149,0,0,0,0,0,0,0,0,0,0,0,0,0,0,0,0,0,0,0,0,0,
154,0,0,0,0,0,0,0,0,0,0,0,0,0,0,0,0,0,0,0,0,0,0,0,0,0,0,0,0,0,0,0,0,0,0,0,0,0,0,0,153,153,0,0,0,0,0,0,0,0,0,0,0,0,0,0,0,0,0,0,0,0,0,0,0,0,0,0,0,0,0,0,0,0,0,0,0,0,
154,153,154,154,153,153,153,155,154,154,153,154,154,153,154,154,0,0,0,0,0,0,0,0,154,154,154,153,154,155,153,153,153,154,154,154,153,154,155,154,154,153,0,0,0,0,0,0,0,0,0,0,0,0,0,0,0,0,0,0,0,0,0,0,0,0,0,0,0,0,0,0,0,0,0,0,0,0,
0,0,0,0,0,0,0,0,0,0,0,0,0,0,0,0,0,0,0,0,0,0,0,0,0,0,0,0,0,0,0,0,0,0,0,0,0,0,0,0,0,0,0,0,0,0,0,0,0,0,0,0,0,0,0,0,0,0,0,0,0,0,0,0,0,0,0,0,0,0,0,0,0,0,0,0,0,0,
0,0,0,0,0,0,0,0,0,0,0,0,0,0,0,0,0,0,0,0,0,0,0,0,0,0,0,0,0,0,0,0,0,0,0,0,0,0,0,0,0,0,0,0,0,0,0,0,0,0,0,0,0,0,0,0,0,0,0,0,0,0,0,0,0,0,0,0,0,0,0,0,0,0,0,0,0,0
</data>
 </layer>
 <layer id="1" name="Floor" width="78" height="78">
  <data encoding="csv">
12,12,12,12,12,12,12,12,12,12,0,0,12,12,12,12,12,12,12,12,12,12,12,12,12,0,0,0,0,0,0,0,0,0,0,0,0,0,0,0,0,0,0,0,0,0,0,0,0,0,0,0,0,0,0,0,0,0,0,0,0,0,0,0,0,0,0,0,0,0,0,0,0,0,0,0,0,0,
12,12,12,12,12,32,12,12,12,12,0,0,12,12,12,12,12,12,12,12,12,12,12,12,12,12,12,12,12,12,12,12,12,12,12,12,0,0,0,0,0,0,0,0,0,0,0,0,0,0,0,0,0,0,0,0,0,0,0,0,0,0,0,0,0,0,0,0,0,0,0,0,0,0,0,0,0,0,
12,12,12,12,32,32,32,12,12,12,0,0,12,12,12,12,12,12,12,12,12,12,12,12,12,12,12,12,12,12,12,12,12,12,12,12,0,0,0,0,0,0,0,0,0,0,0,0,0,0,0,0,0,0,0,0,0,0,0,0,0,0,0,0,0,0,0,0,0,0,0,0,0,0,0,0,0,0,
12,12,12,12,12,32,12,12,12,12,0,0,12,12,12,12,12,12,12,12,12,12,12,12,12,0,0,0,0,0,0,0,0,0,12,12,0,0,0,0,0,0,0,0,0,0,0,0,0,0,0,0,0,0,0,0,57,57,57,57,0,0,0,0,0,0,0,0,0,0,0,0,0,0,0,0,0,0,
12,12,12,12,12,12,12,12,12,12,0,0,12,12,12,12,12,12,12,12,12,12,12,12,12,0,0,0,0,0,0,0,0,0,12,12,0,0,0,0,0,0,0,0,0,0,0,0,0,0,0,0,0,0,0,0,57,57,57,57,0,0,0,0,0,0,0,0,0,0,0,0,0,0,0,0,0,0,
12,12,12,12,12,12,12,12,12,12,0,0,0,0,12,12,0,0,0,0,0,12,12,12,12,0,0,0,0,0,0,0,0,0,12,12,0,0,0,0,12,12,12,12,12,12,12,12,0,0,0,0,0,0,0,0,57,57,57,57,0,0,0,0,0,0,0,0,0,0,0,0,0,0,0,0,0,0,
0,0,0,0,0,0,12,12,0,0,0,0,0,0,12,12,0,0,0,0,0,12,12,12,12,0,0,0,0,0,0,0,0,0,12,12,0,0,0,0,12,12,12,12,12,12,12,12,0,0,0,0,57,57,57,57,57,57,57,57,0,0,0,0,0,0,0,0,0,0,0,0,0,0,0,0,0,0,
0,0,0,0,0,0,12,12,0,0,0,0,0,0,12,12,0,0,0,0,0,12,12,12,12,0,0,0,0,0,0,0,0,0,12,12,0,0,0,0,12,12,12,12,12,12,12,12,0,0,0,0,57,57,57,57,57,57,57,57,0,0,0,0,0,0,0,0,0,0,0,0,0,0,0,0,0,0,
0,0,0,0,0,0,12,12,12,12,12,12,12,12,12,12,0,0,0,0,0,0,0,0,0,0,0,0,0,0,0,0,0,0,12,12,12,12,12,12,12,12,12,12,12,12,12,12,0,0,0,0,57,57,57,57,57,57,57,57,0,0,0,0,0,0,0,0,0,0,0,0,0,0,0,0,0,0,
32,32,32,32,0,0,12,12,12,12,12,12,12,12,12,12,0,0,0,0,0,0,0,0,0,0,0,0,0,0,0,0,0,0,12,12,12,12,12,12,12,12,12,12,12,12,12,12,0,0,0,0,57,57,57,57,57,57,57,57,57,0,0,0,0,0,0,0,0,0,0,0,0,0,0,0,0,0,
32,32,32,32,0,0,0,0,0,0,0,0,12,12,0,0,0,32,32,32,32,32,32,32,32,32,32,32,0,0,0,0,0,0,12,12,0,0,0,0,12,12,12,12,12,12,12,12,0,0,0,0,57,57,57,57,57,57,57,57,57,0,0,0,0,0,0,0,0,0,0,0,0,0,0,0,0,0,
32,32,32,32,0,0,0,0,0,0,0,0,12,12,0,0,0,32,32,32,32,32,32,32,32,32,32,32,0,0,0,0,0,0,12,12,0,0,0,0,12,12,12,12,12,12,12,12,0,0,0,0,57,57,57,57,57,57,57,57,57,0,0,0,0,0,0,0,0,0,0,0,0,0,0,0,0,0,
32,32,32,32,0,0,0,0,0,0,0,0,12,12,0,0,0,32,32,32,32,32,32,32,32,32,32,32,0,0,0,0,0,0,12,12,0,0,0,0,0,0,0,0,12,12,12,12,0,0,0,0,57,57,57,57,57,57,57,57,57,0,0,0,0,0,0,0,0,0,0,0,0,0,0,0,0,0,
32,32,32,32,32,32,32,0,0,0,0,0,12,12,0,0,0,32,32,32,32,32,32,32,0,0,0,0,0,0,0,0,0,0,12,12,0,0,0,0,0,0,0,0,12,12,12,12,0,0,0,0,0,0,57,57,57,57,0,0,0,0,0,0,0,0,0,0,0,0,0,0,0,0,0,0,0,0,
32,32,32,32,32,32,32,0,0,0,0,0,32,12,0,0,0,32,32,32,32,32,32,32,0,0,0,0,0,0,0,0,0,0,12,12,0,0,0,0,0,0,0,0,12,12,12,12,0,0,0,0,0,0,0,0,57,57,0,0,0,0,0,0,0,0,0,0,0,0,0,0,0,0,0,0,0,0,
32,32,32,32,32,32,32,0,0,0,0,0,32,32,0,0,0,32,32,0,0,0,0,0,0,0,0,0,0,0,0,0,0,0,12,12,0,0,0,0,0,0,0,0,0,0,57,57,0,0,0,0,0,0,0,0,57,57,0,0,0,0,0,0,0,0,0,0,0,0,0,0,0,0,0,0,0,0,
32,32,32,32,32,32,32,32,32,32,32,32,32,32,0,0,0,32,32,0,0,0,0,0,0,0,0,0,0,0,0,0,0,0,12,12,0,0,0,0,0,0,0,0,0,0,57,57,0,0,0,0,0,0,0,0,57,57,0,0,0,0,0,0,0,0,0,0,0,0,0,0,0,0,0,0,0,0,
32,32,32,32,32,32,32,32,32,32,32,32,32,32,0,0,0,32,32,0,0,0,0,0,0,0,0,0,0,0,0,0,0,0,12,12,0,0,0,0,0,0,0,0,0,0,57,57,57,57,57,57,57,57,57,57,57,57,0,0,0,0,0,0,0,0,0,0,0,0,0,0,0,0,0,0,0,0,
0,0,0,0,0,0,0,0,0,0,0,0,32,32,0,0,0,32,32,0,0,0,0,0,0,0,0,0,0,0,0,0,0,0,12,12,0,0,0,0,0,0,0,0,0,0,57,57,57,57,57,57,57,57,57,57,57,57,0,0,0,0,0,0,0,0,0,0,0,0,0,0,0,0,0,0,0,0,
0,37,37,37,37,37,37,37,37,37,0,0,32,32,32,32,32,32,32,32,32,32,32,32,32,32,32,32,32,32,12,12,12,12,12,12,0,0,0,0,0,0,0,0,0,0,0,0,0,0,0,0,0,0,0,57,57,0,0,0,0,0,0,0,0,0,0,0,0,0,0,0,0,0,0,0,0,0,
0,37,37,37,37,37,37,37,37,37,0,0,32,32,32,32,32,32,32,32,32,32,32,32,32,32,32,32,32,32,32,12,12,12,12,12,0,0,0,0,0,0,0,0,0,0,0,0,0,0,0,0,0,0,0,57,57,0,0,0,0,0,0,0,0,0,0,0,0,0,0,0,0,0,0,0,0,0,
0,37,37,37,37,37,37,37,37,37,0,0,32,32,0,0,0,0,0,0,0,0,0,0,0,0,0,32,32,0,0,0,0,0,0,0,0,0,0,0,0,0,0,0,0,0,0,0,0,0,0,0,0,0,0,57,57,0,0,0,0,0,0,0,0,0,0,0,0,0,0,0,0,0,0,0,0,0,
0,0,37,37,37,37,37,37,0,0,0,0,32,32,0,0,0,0,0,0,0,0,0,0,0,0,0,32,32,0,0,0,0,0,0,0,0,0,0,0,0,0,0,0,17,17,17,17,17,17,17,17,17,17,17,17,57,17,17,17,17,0,0,0,0,0,0,0,0,0,0,0,0,0,0,0,0,0,
0,0,0,0,37,37,0,0,0,0,0,0,37,37,0,0,0,0,0,0,0,0,0,0,0,0,0,32,32,0,0,0,0,0,0,0,0,0,0,0,0,0,0,0,17,17,17,17,17,17,17,17,17,17,17,17,17,17,17,17,17,0,0,0,0,0,0,0,0,0,0,0,0,0,0,0,0,0,
0,0,0,37,37,37,37,37,37,37,37,37,37,37,37,0,0,0,0,0,0,0,0,0,0,0,0,32,32,0,0,0,0,0,0,0,0,0,0,0,0,0,0,0,17,17,0,0,0,0,0,0,0,0,0,0,0,0,0,17,17,0,0,0,0,0,0,0,0,0,0,0,0,0,0,0,0,0,
0,0,0,37,37,37,37,37,37,37,37,37,37,37,37,37,37,0,0,0,0,0,0,0,0,0,0,32,32,0,0,0,0,0,0,0,0,0,0,0,0,0,0,0,17,17,0,0,0,0,0,0,0,0,0,0,0,0,0,17,17,0,0,0,0,0,0,0,0,0,0,0,0,0,0,0,0,0,
0,0,0,37,37,37,37,37,37,37,0,0,0,37,37,37,37,0,0,0,0,0,0,0,0,0,0,32,57,0,0,0,0,0,0,0,0,17,17,17,17,17,17,17,17,17,17,0,0,17,17,17,17,17,17,17,17,0,0,17,17,0,0,0,0,0,0,0,0,0,0,0,0,0,0,0,0,0,
0,0,0,37,37,37,37,37,37,37,0,0,0,0,0,37,37,37,37,0,0,0,0,0,0,0,0,57,57,0,0,0,0,0,0,0,0,17,17,17,17,17,17,17,17,17,17,0,0,17,17,17,17,17,17,17,17,0,0,17,17,0,0,0,0,0,0,0,0,0,0,0,0,0,0,0,0,0,
0,0,0,0,0,37,37,0,0,0,0,0,0,0,0,37,37,37,37,0,0,0,0,0,0,0,0,57,57,0,0,0,0,0,0,0,0,17,17,17,17,17,17,17,17,17,17,0,0,17,17,17,17,17,17,17,17,17,17,17,17,0,0,0,0,0,0,0,0,0,0,0,0,0,0,0,0,0,
0,0,0,0,0,37,37,0,0,0,0,0,0,0,0,0,0,37,37,37,37,0,0,0,0,0,0,57,57,0,0,0,0,0,0,0,0,17,17,17,17,17,17,17,17,17,17,0,0,17,17,17,17,17,17,17,17,17,17,17,17,0,0,0,0,0,0,0,0,0,0,0,0,0,0,0,0,0,
0,0,0,0,0,37,37,0,0,0,0,0,0,0,0,0,0,37,37,37,37,0,0,0,0,0,0,57,57,0,0,0,0,0,0,0,0,17,17,17,17,17,17,17,17,17,17,0,0,17,17,17,17,17,17,17,17,0,0,17,17,0,0,0,0,0,0,0,0,0,0,0,0,0,0,0,0,0,
0,0,0,0,0,37,37,37,37,37,37,37,37,0,0,0,0,0,0,37,37,0,0,0,0,0,0,57,57,0,0,0,0,0,0,0,17,17,17,17,17,17,17,17,17,17,17,0,0,17,17,17,17,17,17,17,17,0,0,17,17,0,0,0,0,0,0,0,0,0,0,0,0,0,0,0,0,0,
0,0,0,0,0,37,37,37,37,37,37,37,37,0,0,0,0,0,0,37,37,0,0,0,0,0,0,57,57,0,0,0,0,0,0,0,17,17,17,17,17,17,17,17,17,17,17,0,0,17,17,17,17,17,17,17,17,0,0,17,17,0,0,0,0,0,0,0,0,0,0,0,0,0,0,0,0,0,
0,0,0,0,0,37,37,37,37,37,37,37,37,37,37,37,37,37,37,37,37,0,0,0,0,0,0,57,57,0,0,0,0,0,0,0,17,17,17,17,17,17,17,17,17,17,17,0,0,17,17,17,17,17,17,17,17,0,0,17,17,0,0,0,0,0,0,0,0,0,0,0,0,0,0,0,0,0,
0,0,0,0,0,37,37,37,37,37,37,37,37,37,37,37,37,37,57,37,37,0,0,0,0,0,0,57,57,0,0,0,0,0,0,0,0,0,17,17,17,17,17,0,0,0,0,0,0,17,17,17,17,17,0,0,0,0,0,17,17,0,0,0,0,0,0,0,0,0,0,0,0,0,0,0,0,0,
0,0,0,0,0,37,37,37,37,37,37,37,37,0,0,0,0,57,57,0,0,0,0,0,0,0,0,57,57,0,0,0,0,0,0,0,0,0,0,0,0,17,17,0,0,0,0,0,0,17,17,17,17,17,0,0,0,0,17,17,17,17,17,0,0,0,0,0,0,0,0,0,0,0,0,0,0,0,
0,0,0,0,0,37,37,37,37,37,0,0,0,0,0,0,0,57,57,0,0,0,0,0,0,0,0,57,57,0,0,0,0,0,0,0,0,0,0,0,0,17,17,0,0,0,0,0,0,17,17,17,17,17,0,0,0,0,17,17,17,17,17,0,0,0,0,0,0,0,0,0,0,0,0,0,0,0,
0,0,0,0,0,0,0,0,0,0,0,0,0,0,0,0,0,57,57,0,0,57,57,57,57,57,57,57,57,57,0,0,0,0,0,0,0,0,0,0,0,17,17,0,0,0,0,0,0,17,17,17,17,17,0,0,0,0,17,17,17,17,17,0,0,0,0,0,0,0,0,0,0,0,0,0,0,0,
0,0,0,0,0,0,0,0,0,0,0,0,0,0,0,0,0,57,57,0,0,57,57,57,57,57,57,57,57,57,0,0,0,0,0,0,0,0,0,0,0,17,17,0,0,0,0,0,0,0,0,0,0,0,0,0,0,0,17,17,17,17,17,0,0,0,0,0,0,0,0,0,0,0,0,0,0,0,
0,0,57,57,57,57,57,57,57,57,57,57,0,0,0,0,0,57,57,0,0,57,57,57,57,57,57,57,57,57,57,57,0,0,0,0,0,0,0,0,0,17,17,0,0,0,0,0,0,0,0,0,0,0,0,0,0,0,17,17,17,17,17,0,0,0,0,0,0,0,0,0,0,0,0,0,0,0,
0,0,57,57,57,57,57,57,57,57,57,57,0,0,0,0,0,57,57,0,0,57,57,57,57,57,57,57,57,57,57,57,0,0,0,0,0,0,0,0,0,17,17,0,0,0,0,0,0,0,0,0,17,17,17,17,17,17,17,17,17,17,17,0,0,0,0,0,0,0,0,0,0,0,0,0,0,0,
0,0,57,57,57,57,57,57,57,57,57,57,0,0,0,0,0,57,57,0,0,57,57,57,57,57,57,57,57,57,57,57,0,0,0,0,0,0,0,0,0,17,17,0,0,0,0,0,0,0,0,0,17,17,17,17,17,17,17,17,17,17,17,0,0,0,0,0,0,0,0,0,0,0,0,0,0,0,
0,57,57,57,57,57,57,57,57,57,57,57,57,57,57,57,57,57,57,57,57,57,57,57,57,57,57,57,57,57,57,57,57,57,57,57,57,57,17,17,17,17,17,0,0,0,0,0,0,0,0,0,17,17,0,17,17,17,17,17,17,17,17,0,0,0,0,0,0,0,0,0,0,0,0,0,0,0,
0,57,57,57,57,57,57,57,57,57,57,57,57,57,57,57,57,57,57,57,57,57,57,57,57,57,57,57,57,57,57,57,57,57,57,57,57,57,57,17,17,17,17,0,0,0,0,0,0,0,0,0,17,17,0,17,17,17,17,17,17,17,17,0,0,0,0,0,0,0,0,0,0,0,0,0,0,0,
0,57,57,0,0,0,0,0,0,0,0,0,0,0,0,0,0,0,0,0,0,0,0,0,57,57,0,0,0,0,0,0,0,0,0,0,57,57,0,0,0,0,0,0,0,0,0,0,0,0,0,0,17,17,0,0,0,0,0,0,0,0,0,0,0,0,0,0,0,0,0,0,0,0,0,0,0,0,
0,57,57,0,0,0,0,0,0,0,0,0,0,0,0,0,0,0,0,0,0,0,0,0,57,57,0,0,0,0,0,0,0,0,0,0,57,57,0,0,0,0,0,0,0,0,0,0,0,0,0,0,17,17,0,0,0,0,0,0,0,0,0,0,0,0,0,0,0,0,0,0,0,0,0,0,0,0,
0,57,57,57,57,57,57,57,57,57,57,57,57,0,0,0,0,0,0,0,0,0,0,0,57,57,0,0,0,0,0,0,0,0,0,0,57,57,0,0,0,0,0,0,0,0,0,0,0,0,0,0,17,17,0,0,0,0,0,0,0,0,0,0,0,0,0,0,0,0,0,0,0,0,0,0,0,0,
0,57,57,57,57,57,57,57,57,57,57,57,57,0,0,0,0,0,0,0,0,0,0,0,57,57,0,0,0,0,0,0,0,0,0,0,57,57,0,0,0,0,0,0,0,0,0,0,0,0,0,0,17,17,0,0,0,0,0,0,0,0,0,0,0,0,0,0,0,0,0,0,0,0,0,0,0,0,
0,57,57,57,57,57,57,57,57,57,57,57,57,0,0,0,0,0,0,0,0,0,0,0,57,57,0,0,0,0,0,0,0,0,0,0,57,57,0,0,0,0,0,0,0,0,0,0,0,0,0,0,17,17,0,0,0,0,0,0,0,0,0,0,0,0,0,0,0,0,0,0,0,0,0,0,0,0,
0,57,57,57,57,57,57,57,57,57,57,57,57,0,0,0,0,0,57,57,57,57,57,57,57,57,0,0,0,0,0,0,0,0,0,0,57,57,57,57,57,57,57,57,57,57,57,37,37,37,37,37,17,37,37,37,37,37,0,0,0,0,0,0,0,0,0,0,0,0,0,0,0,0,0,0,0,0,
0,57,57,57,57,57,57,57,57,57,57,57,57,0,0,0,0,0,57,57,57,57,57,57,57,57,57,57,57,57,57,57,57,57,57,57,57,57,57,57,57,57,57,57,57,57,37,37,37,37,37,37,37,37,37,37,37,37,0,0,0,0,0,0,0,0,0,0,0,0,0,0,0,0,0,0,0,0,
0,57,57,57,57,57,57,57,57,57,57,57,57,0,0,0,0,0,57,57,0,0,0,0,57,57,57,57,57,57,57,57,57,57,57,57,57,57,0,0,0,0,0,57,57,0,0,0,0,0,0,0,0,0,0,0,37,37,0,0,0,0,0,0,0,0,0,0,0,0,0,0,0,0,0,0,0,0,
0,57,57,57,57,57,57,57,57,57,0,0,0,0,0,0,0,0,57,57,0,0,0,0,0,0,0,0,0,0,0,0,0,0,0,0,0,0,0,0,0,0,0,57,57,0,0,0,0,0,0,0,0,0,0,0,37,37,0,0,0,0,0,0,0,0,0,0,0,0,0,0,0,0,0,0,0,0,
0,0,0,0,0,0,0,0,0,0,0,0,0,0,0,0,0,0,57,57,0,0,0,0,0,0,0,0,0,0,0,0,0,0,0,0,0,0,0,0,0,0,0,57,57,0,0,0,0,0,0,0,0,0,0,0,37,37,0,0,0,0,0,0,0,0,0,0,0,0,0,0,0,0,0,0,0,0,
0,0,0,0,0,0,0,0,0,0,0,0,0,0,0,0,0,0,57,57,0,0,0,0,0,0,0,0,0,57,57,57,57,57,57,57,57,57,57,0,0,0,0,57,57,0,0,37,37,37,37,37,37,0,0,0,37,37,0,0,0,0,0,0,0,0,0,0,0,0,0,0,0,0,0,0,0,0,
0,0,0,0,37,37,37,37,37,37,37,0,0,0,0,57,57,57,57,57,57,57,57,57,57,57,57,0,0,57,57,57,57,57,57,57,57,57,57,0,0,0,0,57,57,0,0,37,37,37,37,37,37,0,0,0,37,37,0,0,0,0,0,0,0,0,0,0,0,0,0,0,0,0,0,0,0,0,
0,0,0,0,37,37,37,37,37,37,37,0,0,0,0,57,57,57,57,57,57,57,57,57,57,57,57,0,0,57,57,57,57,57,57,0,0,57,57,0,0,0,0,57,57,0,0,37,37,37,37,37,37,0,0,0,37,37,0,0,0,0,0,0,0,0,0,0,0,0,0,0,0,0,0,0,0,0,
0,0,37,37,37,37,37,37,37,37,37,0,0,0,57,57,57,57,57,57,57,57,57,57,57,57,57,0,0,57,57,57,57,57,57,0,0,57,57,0,0,0,0,57,57,0,0,37,37,37,37,37,37,0,0,0,37,37,0,0,0,0,0,0,0,0,0,0,0,0,0,0,0,0,0,0,0,0,
0,0,37,37,37,37,37,37,37,37,37,0,0,0,57,57,57,57,57,57,57,57,57,57,57,57,57,0,0,57,57,57,57,57,57,0,0,57,57,57,57,57,57,57,57,0,0,37,37,37,37,37,37,0,0,0,37,37,0,0,0,0,0,0,0,0,0,0,0,0,0,0,0,0,0,0,0,0,
0,0,37,37,37,37,37,37,37,37,37,0,0,0,57,57,57,57,57,57,57,57,57,57,57,57,57,0,0,0,0,0,0,0,0,0,0,57,57,57,57,57,57,57,57,0,0,37,37,37,37,37,37,37,37,37,37,37,0,0,0,0,0,0,0,0,0,0,0,0,0,0,0,0,0,0,0,0,
0,0,37,37,37,37,37,37,37,37,37,0,0,0,57,57,57,57,57,57,57,57,57,0,0,0,0,0,0,0,0,0,0,0,0,0,0,0,0,0,0,0,0,57,57,0,0,37,37,37,37,37,37,37,37,37,37,37,0,0,0,0,0,0,0,0,0,0,0,0,0,0,0,0,0,0,0,0,
0,0,37,37,37,37,37,37,37,37,37,0,0,0,0,0,0,0,0,0,0,0,0,0,0,0,0,0,0,0,0,0,0,0,0,0,0,0,0,0,0,0,0,57,57,0,0,0,0,0,0,0,0,0,37,37,0,0,0,0,0,0,0,0,0,0,0,0,0,0,0,0,0,0,0,0,0,0,
0,0,37,37,37,37,37,37,37,37,37,0,0,0,0,0,0,0,0,0,0,0,0,0,0,0,0,0,0,0,0,0,0,0,0,0,0,0,0,0,0,0,0,57,57,0,0,0,0,0,0,0,0,0,37,37,0,0,0,0,0,0,0,0,0,0,0,0,0,0,0,0,0,0,0,0,0,0,
0,0,37,37,37,37,37,37,37,37,37,0,0,0,0,0,0,0,0,0,0,0,0,0,0,0,0,0,0,0,0,0,0,0,0,0,0,0,0,0,0,0,0,57,57,0,0,0,0,0,0,0,0,0,37,37,0,0,0,0,0,0,0,0,0,0,0,0,0,0,0,0,0,0,0,0,0,0,
0,0,0,0,0,0,37,37,0,0,0,0,0,0,0,0,0,0,0,0,0,0,0,0,0,0,0,0,0,0,0,0,0,0,0,0,0,0,0,0,0,0,0,57,57,0,0,0,0,0,0,0,0,0,37,37,0,0,0,0,0,0,0,0,0,0,0,0,0,0,0,0,0,0,0,0,0,0,
0,0,0,0,0,0,37,37,0,0,0,0,0,0,0,0,0,0,0,0,0,0,0,0,0,0,0,0,0,0,0,0,37,37,37,37,37,37,37,37,37,37,37,57,57,0,0,0,0,0,37,37,37,37,37,37,0,0,0,0,0,0,0,0,0,0,0,0,0,0,0,0,0,0,0,0,0,0,
0,0,0,0,0,0,37,37,37,37,37,37,37,37,37,37,37,37,37,37,37,37,37,37,37,37,37,0,0,0,0,0,37,37,37,37,37,37,37,37,37,37,37,37,57,0,0,0,0,0,37,37,37,37,37,37,0,0,0,0,0,0,0,0,0,0,0,0,0,0,0,0,0,0,0,0,0,0,
0,0,0,0,0,0,37,37,37,37,37,37,37,37,37,37,37,37,37,37,37,37,37,37,37,37,37,0,0,0,0,0,37,37,0,0,0,0,0,0,0,0,0,57,57,0,0,0,0,0,37,37,0,0,0,0,0,0,0,0,0,0,0,0,0,0,0,0,0,0,0,0,0,0,0,0,0,0,
0,0,0,0,0,0,0,0,0,0,0,0,0,37,37,0,0,0,0,0,0,0,0,0,0,37,37,37,37,37,37,37,37,37,0,0,0,0,0,0,0,0,0,57,57,0,0,0,0,0,37,37,0,0,0,0,0,0,0,0,0,0,0,0,0,0,0,0,0,0,0,0,0,0,0,0,0,0,
0,0,0,0,0,0,0,0,0,0,0,0,0,37,37,0,0,0,0,0,0,0,0,0,0,37,37,37,37,37,37,37,37,37,0,0,0,0,0,0,0,0,0,57,57,0,0,0,0,0,37,37,0,0,0,0,0,0,0,0,0,0,0,0,0,0,0,0,0,0,0,0,0,0,0,0,0,0,
0,0,0,0,0,0,0,0,0,0,0,0,0,37,37,0,0,37,37,37,37,37,37,37,0,0,0,0,0,0,0,0,0,0,0,0,0,0,0,0,0,0,0,57,57,0,0,0,0,0,37,37,0,0,0,0,0,0,0,0,0,0,0,0,0,0,0,0,0,0,0,0,0,0,0,0,0,0,
0,0,0,0,0,0,0,0,0,0,0,0,0,37,37,37,37,37,37,37,37,37,37,37,0,0,0,0,0,0,0,0,0,0,0,0,0,0,0,0,0,0,0,57,57,0,0,0,0,0,37,37,0,0,0,0,0,0,0,0,0,0,0,0,0,0,0,0,0,0,0,0,0,0,0,0,0,0,
0,0,0,0,0,0,0,0,0,0,0,0,0,37,37,37,37,37,37,37,37,37,37,37,0,0,0,0,0,0,0,0,0,0,0,0,0,0,0,0,0,0,0,57,57,0,0,0,0,0,37,37,0,0,0,0,0,0,0,0,0,0,0,0,0,0,0,0,0,0,0,0,0,0,0,0,0,0,
0,0,0,0,0,0,0,0,0,0,0,0,0,0,0,0,37,37,37,37,37,37,37,37,0,0,0,0,0,0,0,0,0,0,0,0,0,0,0,0,0,0,0,57,37,37,37,37,37,37,37,37,0,0,0,0,0,0,0,0,0,0,0,0,0,0,0,0,0,0,0,0,0,0,0,0,0,0,
0,0,0,0,0,0,0,0,0,0,0,0,0,0,0,0,37,37,37,37,37,37,37,37,0,0,0,0,0,0,0,0,0,0,0,0,0,0,0,0,0,0,0,57,57,37,37,37,37,37,37,37,0,0,0,0,0,0,0,0,0,0,0,0,0,0,0,0,0,0,0,0,0,0,0,0,0,0,
0,0,0,0,0,0,0,0,0,0,0,0,0,0,0,0,37,37,37,37,37,37,37,37,0,0,0,0,0,0,0,0,0,0,0,0,0,0,0,0,0,0,0,0,0,0,0,0,0,0,0,0,0,0,0,0,0,0,0,0,0,0,0,0,0,0,0,0,0,0,0,0,0,0,0,0,0,0,
0,0,0,0,0,0,0,0,0,0,0,0,0,0,0,0,0,0,0,0,0,0,0,0,0,0,0,0,0,0,0,0,0,0,0,0,0,0,0,0,0,0,0,0,0,0,0,0,0,0,0,0,0,0,0,0,0,0,0,0,0,0,0,0,0,0,0,0,0,0,0,0,0,0,0,0,0,0,
0,0,0,0,0,0,0,0,0,0,0,0,0,0,0,0,0,0,0,0,0,0,0,0,0,0,0,0,0,0,0,0,0,0,0,0,0,0,0,0,0,0,0,0,0,0,0,0,0,0,0,0,0,0,0,0,0,0,0,0,0,0,0,0,0,0,0,0,0,0,0,0,0,0,0,0,0,0
</data>
 </layer>
 <layer id="4" name="Walls" width="78" height="78">
  <data encoding="csv">
61,64,64,64,64,64,64,64,64,62,0,0,61,64,64,64,64,64,64,64,64,64,64,64,62,77,77,77,77,77,77,77,77,77,77,77,86,0,0,0,0,0,0,0,0,0,0,0,0,0,0,0,0,0,0,0,0,0,0,0,0,0,0,0,0,0,0,0,0,0,0,0,0,0,0,0,0,0,
63,0,0,0,0,0,0,0,0,76,0,0,63,0,0,0,0,0,0,0,0,0,0,0,0,0,0,0,0,0,0,0,0,0,0,0,63,0,0,0,0,0,0,0,0,0,0,0,0,0,0,0,0,0,0,0,0,0,0,0,0,0,0,0,0,0,0,0,0,0,0,0,0,0,0,0,0,0,
63,0,0,0,0,0,0,0,0,76,0,0,63,0,0,0,0,0,0,0,0,0,0,0,0,0,0,0,0,0,0,0,0,0,0,0,63,0,0,0,0,0,0,0,0,0,0,0,0,0,0,0,0,0,0,0,0,0,0,0,0,0,0,0,0,0,0,0,0,0,0,0,0,0,0,0,0,0,
63,0,0,0,0,0,0,0,0,76,0,0,63,0,0,0,0,0,0,0,0,0,0,0,76,64,64,64,64,64,64,64,64,62,0,0,63,0,0,0,0,0,0,0,0,0,0,0,0,0,0,0,0,0,0,0,61,64,64,62,0,0,0,0,0,0,0,0,0,0,0,0,0,0,0,0,0,0,
63,0,0,0,0,0,0,0,0,76,0,0,66,77,0,0,77,77,77,77,77,86,0,0,76,0,0,0,0,0,0,0,0,76,0,0,63,0,0,0,0,0,0,0,0,0,0,0,0,0,0,0,0,0,0,0,63,0,0,76,0,0,0,0,0,0,0,0,0,0,0,0,0,0,0,0,0,0,
66,77,77,77,77,77,0,0,77,67,0,0,0,76,0,0,63,0,0,0,0,63,0,0,76,0,0,0,0,0,0,0,0,76,0,0,63,0,0,0,61,64,64,64,64,64,64,62,0,0,0,0,0,0,0,0,63,0,0,76,0,0,0,0,0,0,0,0,0,0,0,0,0,0,0,0,0,0,
0,0,0,0,0,76,0,0,63,0,0,0,0,76,0,0,63,0,0,0,0,63,0,0,76,0,0,0,0,0,0,0,0,76,0,0,63,0,0,0,63,0,0,0,0,0,0,76,0,0,0,0,61,64,64,64,87,0,0,76,0,0,0,0,0,0,0,0,0,0,0,0,0,0,0,0,0,0,
0,0,0,0,0,76,0,0,66,77,77,77,77,67,0,0,63,0,0,0,0,66,77,77,67,0,0,0,0,0,0,0,0,76,0,0,66,77,77,77,68,0,0,0,0,0,0,76,0,0,0,0,63,0,0,0,0,0,0,76,0,0,0,0,0,0,0,0,0,0,0,0,0,0,0,0,0,0,
0,0,0,0,0,76,0,0,0,0,0,0,0,0,0,0,63,0,0,0,0,0,0,0,0,0,0,0,0,0,0,0,0,76,0,0,0,0,0,0,0,0,0,0,0,0,0,76,0,0,0,0,63,0,0,0,0,0,0,76,0,0,0,0,0,0,0,0,0,0,0,0,0,0,0,0,0,0,
61,64,64,62,0,76,0,0,0,0,0,0,0,0,0,0,63,0,0,0,0,0,0,0,0,0,0,0,0,0,0,0,0,76,0,0,0,0,0,0,0,0,0,0,0,0,0,76,0,0,0,0,63,0,0,0,0,0,0,74,62,0,0,0,0,0,0,0,0,0,0,0,0,0,0,0,0,0,
63,0,0,76,0,74,64,64,64,64,64,62,0,0,61,64,87,61,64,64,64,64,64,64,64,64,64,62,0,0,0,0,0,76,0,0,61,64,64,64,63,0,0,0,0,0,0,76,0,0,0,0,63,0,0,0,0,0,0,0,76,0,0,0,0,0,0,0,0,0,0,0,0,0,0,0,0,0,
63,0,0,76,0,0,0,0,0,0,0,76,0,0,63,0,0,63,0,0,0,0,0,0,0,0,0,76,0,0,0,0,0,76,0,0,63,0,0,0,66,77,77,77,86,0,0,76,0,0,0,0,63,0,0,0,0,0,0,0,76,0,0,0,0,0,0,0,0,0,0,0,0,0,0,0,0,0,
63,0,0,76,0,0,0,0,0,0,0,76,0,0,63,0,0,63,0,0,0,0,0,88,77,77,77,67,0,0,0,0,0,76,0,0,63,0,0,0,0,0,0,0,63,0,0,76,0,0,0,0,66,77,86,0,0,0,78,78,67,0,0,0,0,0,0,0,0,0,0,0,0,0,0,0,0,0,
63,0,0,74,64,64,62,0,0,0,0,76,0,0,63,0,0,63,0,0,0,0,0,76,0,0,0,0,0,0,0,0,0,76,0,0,63,0,0,0,0,0,0,0,63,0,0,76,86,0,0,0,0,0,66,78,0,0,63,0,0,0,0,0,0,0,0,0,0,0,0,0,0,0,0,0,0,0,
63,0,0,0,0,0,76,0,0,0,0,76,0,0,63,0,88,63,0,77,77,77,77,67,0,0,0,0,0,0,0,0,0,76,0,0,63,0,0,0,0,0,0,0,66,78,0,0,63,0,0,0,0,0,0,76,0,0,63,0,0,0,0,0,0,0,0,0,0,0,0,0,0,0,0,0,0,0,
63,0,0,0,0,0,76,77,77,77,77,67,0,0,63,0,76,0,0,63,0,0,0,0,0,0,0,0,0,0,0,0,0,76,0,0,63,0,0,0,0,0,0,0,0,76,0,0,63,0,0,0,0,0,0,76,0,0,63,0,0,0,0,0,0,0,0,0,0,0,0,0,0,0,0,0,0,0,
63,0,0,0,0,0,0,0,0,0,0,0,0,0,63,0,76,0,0,63,0,0,0,0,0,0,0,0,0,0,0,0,0,76,0,0,63,0,0,0,0,0,0,0,0,76,0,0,66,77,77,77,77,77,77,67,0,0,63,0,0,0,0,0,0,0,0,0,0,0,0,0,0,0,0,0,0,0,
66,77,77,77,77,77,77,77,77,77,77,77,0,0,63,0,76,0,0,63,0,0,0,0,0,0,0,0,0,0,0,0,0,76,0,0,63,0,0,0,0,0,0,0,0,76,0,0,0,0,0,0,0,0,0,0,0,0,63,0,0,0,0,0,0,0,0,0,0,0,0,0,0,0,0,0,0,0,
0,0,0,0,0,0,0,0,0,0,0,76,0,0,66,77,67,0,0,66,77,77,77,77,77,77,77,77,77,77,77,77,77,67,0,0,63,0,0,0,0,0,0,0,0,76,0,0,0,0,0,0,0,0,0,0,0,0,63,0,0,0,0,0,0,0,0,0,0,0,0,0,0,0,0,0,0,0,
0,61,64,64,64,64,64,64,64,62,0,76,0,0,0,0,0,0,0,0,0,0,0,0,0,0,0,0,0,0,0,0,0,0,0,0,63,0,0,0,0,0,0,0,0,74,64,64,64,64,64,64,64,64,62,0,0,61,87,0,0,0,0,0,0,0,0,0,0,0,0,0,0,0,0,0,0,0,
0,63,0,0,0,0,0,0,0,76,0,76,0,0,0,0,0,0,0,0,0,0,0,0,0,0,0,0,0,0,0,0,0,0,0,0,68,0,0,0,0,0,0,0,0,0,0,0,0,0,0,0,0,0,76,0,0,63,0,0,0,0,0,0,0,0,0,0,0,0,0,0,0,0,0,0,0,0,
0,66,86,0,0,0,0,88,77,67,0,76,0,0,61,64,64,64,64,64,64,64,64,64,64,64,62,0,0,61,64,64,64,64,64,64,87,0,0,0,0,0,0,88,77,77,77,77,77,77,77,77,77,77,67,0,0,66,77,77,77,86,0,0,0,0,0,0,0,0,0,0,0,0,0,0,0,0,
0,0,66,77,0,0,77,67,0,0,0,76,0,0,63,0,0,0,0,0,0,0,0,0,0,0,76,0,0,63,0,0,0,0,0,0,0,0,0,0,0,0,0,76,0,0,0,0,0,0,0,0,0,0,0,0,0,0,0,0,0,63,0,0,0,0,0,0,0,0,0,0,0,0,0,0,0,0,
0,0,0,76,0,0,66,77,77,77,77,67,0,0,66,86,0,0,0,0,0,0,0,0,0,0,76,0,0,63,0,0,0,0,0,0,0,0,0,0,0,0,0,76,0,0,0,0,0,0,0,0,0,0,0,0,0,0,0,0,0,63,0,0,0,0,0,0,0,0,0,0,0,0,0,0,0,0,
0,0,0,61,0,0,0,0,0,0,0,0,0,0,0,66,77,86,0,0,0,0,0,0,0,0,76,0,0,63,0,0,0,0,0,0,0,0,0,0,0,0,0,76,0,0,61,64,64,64,64,64,64,64,64,64,64,64,62,0,0,63,0,0,0,0,0,0,0,0,0,0,0,0,0,0,0,0,
0,0,0,63,0,0,0,0,0,0,0,0,0,0,0,0,0,63,0,0,0,0,0,0,0,0,76,0,0,63,0,0,0,0,0,0,0,0,0,0,0,0,0,76,0,0,66,86,0,0,0,0,0,0,0,0,0,0,76,0,0,63,0,0,0,0,0,0,0,0,0,0,0,0,0,0,0,0,
0,0,0,63,0,0,0,0,0,76,64,64,62,0,0,0,0,66,77,86,0,0,0,0,0,0,76,0,0,63,0,0,0,0,0,0,0,61,64,64,64,64,64,64,0,0,0,63,0,61,64,64,64,64,64,64,62,0,76,0,0,63,0,0,0,0,0,0,0,0,0,0,0,0,0,0,0,0,
0,0,0,66,77,0,0,77,77,67,0,0,74,64,62,0,0,0,0,63,0,0,0,0,0,0,76,0,0,63,0,0,0,0,0,0,0,63,0,0,0,0,0,0,0,0,0,63,0,63,0,0,0,0,0,0,76,77,67,0,0,63,0,0,0,0,0,0,0,0,0,0,0,0,0,0,0,0,
0,0,0,0,76,0,0,63,0,0,0,0,0,0,76,0,0,0,0,66,77,86,0,0,0,0,76,0,0,63,0,0,0,0,0,0,0,63,0,0,0,0,0,0,0,0,0,63,0,63,0,0,0,0,0,0,0,0,0,0,0,63,0,0,0,0,0,0,0,0,0,0,0,0,0,0,0,0,
0,0,0,0,76,0,0,63,0,0,0,0,0,0,74,64,62,0,0,0,0,63,0,0,0,0,76,0,0,63,0,0,0,0,0,0,0,63,0,0,0,0,0,0,0,0,0,63,0,63,0,0,0,0,0,0,0,0,0,0,0,63,0,0,0,0,0,0,0,0,0,0,0,0,0,0,0,0,
0,0,0,0,76,0,0,63,0,0,0,0,0,0,0,0,76,0,0,0,0,63,0,0,0,0,76,0,0,63,0,0,0,0,0,0,0,63,0,0,0,0,0,0,0,0,0,63,0,63,0,0,0,0,0,0,76,64,62,0,0,63,0,0,0,0,0,0,0,0,0,0,0,0,0,0,0,0,
0,0,0,0,76,0,0,64,64,64,64,64,62,0,0,0,74,64,62,0,0,63,0,0,0,0,76,0,0,63,0,0,0,0,0,0,61,87,0,0,0,0,0,0,0,0,0,63,0,63,0,0,0,0,0,0,76,0,76,0,0,63,0,0,0,0,0,0,0,0,0,0,0,0,0,0,0,0,
0,0,0,0,74,63,0,0,0,0,0,0,76,77,77,77,77,77,67,0,0,63,0,0,0,0,76,0,0,63,0,0,0,0,0,0,63,0,0,0,0,0,0,0,0,0,0,63,0,63,0,0,0,0,0,0,76,0,76,0,0,63,0,0,0,0,0,0,0,0,0,0,0,0,0,0,0,0,
0,0,0,0,0,63,0,0,0,0,0,0,0,0,0,0,0,0,0,0,0,63,0,0,0,0,76,0,0,63,0,0,0,0,0,0,66,77,86,0,0,0,0,0,0,0,0,63,0,63,0,0,0,88,78,78,67,0,76,0,0,63,0,0,0,0,0,0,0,0,0,0,0,0,0,0,0,0,
0,0,0,0,0,63,0,0,0,0,0,0,0,0,0,0,0,0,0,0,0,63,0,0,0,0,76,0,0,63,0,0,0,0,0,0,0,0,66,77,77,0,0,61,64,64,64,87,0,63,0,0,0,76,0,0,0,0,81,0,0,63,0,0,0,0,0,0,0,0,0,0,0,0,0,0,0,0,
0,0,0,0,0,63,0,0,0,88,77,77,67,64,64,64,62,0,0,61,64,87,0,0,0,0,76,0,0,63,0,0,0,0,0,0,0,0,0,0,76,0,0,63,0,0,0,0,0,63,0,0,0,76,0,0,0,0,61,0,0,64,62,0,0,0,0,0,0,0,0,0,0,0,0,0,0,0,
0,0,0,0,0,66,77,77,77,67,0,0,0,0,0,0,76,0,0,63,0,0,0,0,0,88,67,0,0,66,86,0,0,0,0,0,0,0,0,0,76,0,0,63,0,0,0,0,0,63,0,0,0,76,0,0,0,0,63,0,0,0,76,0,0,0,0,0,0,0,0,0,0,0,0,0,0,0,
0,0,0,0,0,0,0,0,0,0,0,0,0,0,0,0,76,0,0,63,0,61,64,64,64,64,0,0,0,0,63,0,0,0,0,0,0,0,0,0,76,0,0,63,0,0,0,0,0,66,78,78,78,67,0,0,0,0,63,0,0,0,76,0,0,0,0,0,0,0,0,0,0,0,0,0,0,0,
0,88,77,77,77,77,77,77,77,77,77,77,86,0,0,0,76,0,0,63,0,63,0,0,0,0,0,0,0,0,66,77,86,0,0,0,0,0,0,0,76,0,0,63,0,0,0,0,0,0,0,0,0,0,0,0,0,0,63,0,0,0,76,0,0,0,0,0,0,0,0,0,0,0,0,0,0,0,
0,76,0,0,0,0,0,0,0,0,0,0,63,0,0,0,76,0,0,63,0,63,0,0,0,0,0,0,0,0,0,0,63,0,0,0,0,0,0,0,76,0,0,63,0,0,0,0,0,0,0,88,77,77,77,77,77,77,68,0,0,0,76,0,0,0,0,0,0,0,0,0,0,0,0,0,0,0,
0,76,0,0,0,0,0,0,0,0,0,0,63,0,0,0,76,0,0,63,0,63,0,0,0,0,0,0,0,0,0,0,63,0,0,0,0,0,0,0,76,0,0,63,0,0,0,0,0,0,0,76,0,0,0,0,0,0,0,0,0,0,76,0,0,0,0,0,0,0,0,0,0,0,0,0,0,0,
88,67,0,0,0,0,0,0,0,0,0,0,66,77,77,77,67,0,0,66,77,63,0,0,0,0,0,0,0,0,0,0,66,77,77,77,77,77,77,77,67,0,0,63,0,0,0,0,0,0,0,76,0,0,0,0,0,0,0,0,0,0,76,0,0,0,0,0,0,0,0,0,0,0,0,0,0,0,
76,0,0,0,0,0,0,0,0,0,0,0,0,0,0,0,0,0,0,0,0,0,0,0,0,0,0,0,0,0,0,0,0,0,0,0,0,0,0,0,0,0,0,63,0,0,0,0,0,0,0,76,0,0,61,63,0,0,0,0,0,0,76,0,0,0,0,0,0,0,0,0,0,0,0,0,0,0,
76,0,0,0,0,0,0,0,0,0,0,0,0,0,0,0,0,0,0,0,0,0,0,0,0,0,0,0,0,0,0,0,0,0,0,0,0,0,0,0,0,0,0,63,0,0,0,0,0,0,0,76,0,0,63,66,77,77,77,77,77,77,67,0,0,0,0,0,0,0,0,0,0,0,0,0,0,0,
76,0,0,61,64,64,64,64,64,64,64,64,64,64,64,64,64,64,64,64,64,64,64,62,0,0,61,64,64,64,64,64,64,64,64,62,0,0,61,64,64,64,64,87,0,0,0,0,0,0,0,76,0,0,63,0,0,0,0,0,0,0,0,0,0,0,0,0,0,0,0,0,0,0,0,0,0,0,
76,0,0,63,0,0,0,0,0,0,0,0,0,0,0,0,0,0,0,0,0,0,0,76,0,0,63,0,0,0,0,0,0,0,0,76,0,0,63,0,0,0,0,0,0,0,0,0,0,0,0,76,0,0,63,0,0,0,0,0,0,0,0,0,0,0,0,0,0,0,0,0,0,0,0,0,0,0,
76,0,0,64,64,64,64,64,64,64,64,64,62,0,0,0,0,0,0,0,0,0,0,76,0,0,63,0,0,0,0,0,0,0,0,76,0,0,63,0,0,0,0,0,0,0,0,0,0,0,0,76,0,0,63,0,0,0,0,0,0,0,0,0,0,0,0,0,0,0,0,0,0,0,0,0,0,0,
74,63,0,0,0,0,0,0,0,0,0,0,76,0,0,0,0,0,0,0,0,0,0,76,0,0,63,0,0,0,0,0,0,0,0,76,0,0,63,0,0,0,0,0,0,0,0,0,0,0,0,76,0,0,63,0,0,0,0,0,0,0,0,0,0,0,0,0,0,0,0,0,0,0,0,0,0,0,
0,63,0,0,0,0,0,0,0,0,0,0,76,0,0,0,0,88,77,77,77,77,77,67,0,0,63,0,0,0,0,0,0,0,0,76,0,0,66,77,77,77,77,77,77,77,77,77,77,77,77,67,0,0,66,77,77,77,86,0,0,0,0,0,0,0,0,0,0,0,0,0,0,0,0,0,0,0,
0,63,0,0,0,0,0,0,0,0,0,0,76,0,0,0,0,76,0,0,0,0,0,0,0,0,66,77,77,77,77,77,77,77,77,67,0,0,0,0,0,0,0,0,0,0,0,0,0,0,0,0,0,0,0,0,0,0,63,0,0,0,0,0,0,0,0,0,0,0,0,0,0,0,0,0,0,0,
0,63,0,0,0,0,0,0,0,0,0,0,76,0,0,0,0,76,0,0,0,0,0,0,0,0,0,0,0,0,0,0,0,0,0,0,0,0,0,0,0,0,0,0,0,0,0,0,0,0,0,0,0,0,0,0,0,0,63,0,0,0,0,0,0,0,0,0,0,0,0,0,0,0,0,0,0,0,
0,63,0,0,0,0,0,0,0,88,77,77,67,0,0,0,0,76,0,0,61,64,64,62,0,0,0,0,0,0,0,0,0,0,0,0,0,0,61,64,64,64,62,0,0,61,64,64,64,64,64,64,64,64,64,62,0,0,63,0,0,0,0,0,0,0,0,0,0,0,0,0,0,0,0,0,0,0,
0,66,77,77,77,77,77,77,77,67,0,0,0,0,0,0,0,76,0,0,63,0,0,74,64,64,64,64,64,64,64,64,64,64,64,64,64,64,87,0,0,0,76,0,0,63,0,0,0,0,0,0,0,0,0,76,0,0,63,0,0,0,0,0,0,0,0,0,0,0,0,0,0,0,0,0,0,0,
0,0,0,0,0,0,0,0,0,0,0,0,0,0,0,0,0,76,0,0,63,0,0,0,0,0,0,0,0,0,0,0,0,0,88,77,77,77,77,86,0,0,76,0,0,63,0,0,0,0,0,0,0,0,0,76,0,0,63,0,0,0,0,0,0,0,0,0,0,0,0,0,0,0,0,0,0,0,
0,0,0,0,0,0,0,0,0,0,0,0,0,0,0,0,0,76,0,0,63,0,0,0,0,0,0,0,0,61,64,64,64,64,64,0,0,0,0,63,0,0,76,0,0,63,0,61,64,64,64,64,62,0,0,76,0,0,63,0,0,0,0,0,0,0,0,0,0,0,0,0,0,0,0,0,0,0,
0,0,0,0,61,64,64,64,64,64,62,0,0,0,0,61,64,64,0,0,64,64,64,64,64,64,62,0,0,63,0,0,0,0,0,0,0,0,0,63,0,0,76,0,0,63,0,63,0,0,0,0,76,0,0,76,0,0,63,0,0,0,0,0,0,0,0,0,0,0,0,0,0,0,0,0,0,0,
0,0,0,0,63,0,0,0,0,0,76,0,0,0,0,63,0,0,0,0,0,0,0,0,0,0,76,0,0,63,0,0,0,0,76,64,62,0,0,63,0,0,76,0,0,63,0,63,0,0,0,0,76,0,0,76,0,0,63,0,0,0,0,0,0,0,0,0,0,0,0,0,0,0,0,0,0,0,
0,0,61,64,87,0,0,0,0,0,76,0,0,0,61,87,0,0,0,0,0,0,0,0,0,0,76,0,0,63,0,0,0,0,76,0,76,0,0,66,77,77,67,0,0,63,0,63,0,0,0,0,76,0,0,76,0,0,63,0,0,0,0,0,0,0,0,0,0,0,0,0,0,0,0,0,0,0,
0,0,63,0,0,0,0,0,0,0,76,0,0,0,63,0,0,0,0,0,0,0,0,0,0,0,76,0,0,66,77,77,77,77,67,0,76,0,0,0,0,0,0,0,0,63,0,63,0,0,0,0,76,77,77,67,0,0,63,0,0,0,0,0,0,0,0,0,0,0,0,0,0,0,0,0,0,0,
0,0,63,0,0,0,0,0,0,0,76,0,0,0,63,0,0,0,0,0,0,0,88,77,77,77,67,0,0,0,0,0,0,0,0,0,76,0,0,0,0,0,0,0,0,63,0,63,0,0,0,0,0,0,0,0,0,0,63,0,0,0,0,0,0,0,0,0,0,0,0,0,0,0,0,0,0,0,
0,0,63,0,0,0,0,0,0,0,76,0,0,0,66,77,77,77,77,77,77,77,67,0,0,0,0,0,0,0,0,0,0,0,0,0,74,64,64,64,64,64,62,0,0,63,0,66,77,77,77,77,77,0,0,0,0,0,63,0,0,0,0,0,0,0,0,0,0,0,0,0,0,0,0,0,0,0,
0,0,63,0,0,0,0,0,0,0,76,0,0,0,0,0,0,0,0,0,0,0,0,0,0,0,0,0,0,0,0,0,0,0,0,0,0,0,0,0,0,0,76,0,0,63,0,0,0,0,0,0,74,62,0,0,61,64,87,0,0,0,0,0,0,0,0,0,0,0,0,0,0,0,0,0,0,0,
0,0,63,0,0,0,0,0,0,0,76,0,0,0,0,0,0,0,0,0,0,0,0,0,0,0,0,0,0,0,0,0,0,0,0,0,0,0,0,0,0,0,76,0,0,63,0,0,0,0,0,0,0,76,0,0,63,0,0,0,0,0,0,0,0,0,0,0,0,0,0,0,0,0,0,0,0,0,
0,0,66,77,77,77,0,0,77,77,67,0,0,0,0,0,0,0,0,0,0,0,0,0,0,0,0,0,0,0,0,0,0,0,0,0,0,0,0,0,0,0,76,0,0,63,0,0,0,0,0,0,0,76,0,0,63,0,0,0,0,0,0,0,0,0,0,0,0,0,0,0,0,0,0,0,0,0,
0,0,0,0,0,76,0,0,63,0,0,0,0,0,0,0,0,0,0,0,0,0,0,0,0,0,0,0,0,0,0,88,77,77,77,77,77,77,77,77,77,77,67,0,0,63,0,0,0,88,77,77,77,67,0,0,63,0,0,0,0,0,0,0,0,0,0,0,0,0,0,0,0,0,0,0,0,0,
0,0,0,0,0,76,0,0,66,77,77,77,77,77,77,77,77,77,77,77,77,77,77,77,77,77,77,86,0,0,0,76,0,0,0,0,0,0,0,0,0,0,0,0,0,63,0,0,0,76,0,0,0,0,0,0,63,0,0,0,0,0,0,0,0,0,0,0,0,0,0,0,0,0,0,0,0,0,
0,0,0,0,0,76,0,0,0,0,0,0,0,0,0,0,0,0,0,0,0,0,0,0,0,0,0,63,0,0,0,76,0,0,0,0,0,0,0,0,0,0,0,0,0,63,0,0,0,76,0,0,0,0,0,0,63,0,0,0,0,0,0,0,0,0,0,0,0,0,0,0,0,0,0,0,0,0,
0,0,0,0,0,76,0,0,0,0,0,0,0,0,0,0,0,0,0,0,0,0,0,0,0,0,0,66,77,77,77,67,0,0,61,64,64,64,64,64,64,64,62,0,0,63,0,0,0,76,0,0,61,64,64,64,87,0,0,0,0,0,0,0,0,0,0,0,0,0,0,0,0,0,0,0,0,0,
0,0,0,0,0,74,64,64,64,64,64,64,62,0,0,61,64,64,64,64,64,64,64,64,62,0,0,0,0,0,0,0,0,0,63,0,0,0,0,0,0,0,76,0,0,63,0,0,0,76,0,0,63,0,0,0,0,0,0,0,0,0,0,0,0,0,0,0,0,0,0,0,0,0,0,0,0,0,
0,0,0,0,0,0,0,0,0,0,0,0,76,0,0,63,0,0,0,0,0,0,0,0,76,0,0,0,0,0,0,0,0,0,63,0,0,0,0,0,0,0,76,0,0,63,0,0,0,76,0,0,63,0,0,0,0,0,0,0,0,0,0,0,0,0,0,0,0,0,0,0,0,0,0,0,0,0,
0,0,0,0,0,0,0,0,0,0,0,0,76,0,0,66,67,64,64,64,64,64,64,62,74,64,64,64,64,64,64,64,64,64,87,0,0,0,0,0,0,0,76,0,0,63,0,0,0,76,0,0,63,0,0,0,0,0,0,0,0,0,0,0,0,0,0,0,0,0,0,0,0,0,0,0,0,0,
0,0,0,0,0,0,0,0,0,0,0,0,76,0,0,0,0,0,0,0,0,0,0,76,0,0,0,0,0,0,0,0,0,0,0,0,0,0,0,0,0,0,76,0,0,63,0,0,0,76,0,0,63,0,0,0,0,0,0,0,0,0,0,0,0,0,0,0,0,0,0,0,0,0,0,0,0,0,
0,0,0,0,0,0,0,0,0,0,0,0,76,0,0,0,0,0,0,0,0,0,0,76,0,0,0,0,0,0,0,0,0,0,0,0,0,0,0,0,0,0,76,0,0,66,77,77,77,67,0,0,63,0,0,0,0,0,0,0,0,0,0,0,0,0,0,0,0,0,0,0,0,0,0,0,0,0,
0,0,0,0,0,0,0,0,0,0,0,0,74,64,64,64,63,0,0,0,0,0,0,76,0,0,0,0,0,0,0,0,0,0,0,0,0,0,0,0,0,0,76,0,0,0,0,0,0,0,0,0,63,0,0,0,0,0,0,0,0,0,0,0,0,0,0,0,0,0,0,0,0,0,0,0,0,0,
0,0,0,0,0,0,0,0,0,0,0,0,0,0,0,0,63,0,0,0,0,0,0,76,0,0,0,0,0,0,0,0,0,0,0,0,0,0,0,0,0,0,76,0,0,0,0,0,0,0,0,0,63,0,0,0,0,0,0,0,0,0,0,0,0,0,0,0,0,0,0,0,0,0,0,0,0,0,
0,0,0,0,0,0,0,0,0,0,0,0,0,0,0,0,66,77,77,77,77,77,77,67,0,0,0,0,0,0,0,0,0,0,0,0,0,0,0,0,0,0,74,64,64,64,64,64,64,64,64,64,87,0,0,0,0,0,0,0,0,0,0,0,0,0,0,0,0,0,0,0,0,0,0,0,0,0,
0,0,0,0,0,0,0,0,0,0,0,0,0,0,0,0,0,0,0,0,0,0,0,0,0,0,0,0,0,0,0,0,0,0,0,0,0,0,0,0,0,0,0,0,0,0,0,0,0,0,0,0,0,0,0,0,0,0,0,0,0,0,0,0,0,0,0,0,0,0,0,0,0,0,0,0,0,0,
0,0,0,0,0,0,0,0,0,0,0,0,0,0,0,0,0,0,0,0,0,0,0,0,0,0,0,0,0,0,0,0,0,0,0,0,0,0,0,0,0,0,0,0,0,0,0,0,0,0,0,0,0,0,0,0,0,0,0,0,0,0,0,0,0,0,0,0,0,0,0,0,0,0,0,0,0,0
</data>
 </layer>
 <objectgroup id="6" name="Hitbox" visible="0">
  <object id="10" x="0.25" y="-0.5" width="239.75" height="16.5"/>
  <object id="11" x="0.5" y="14.25" width="14.75" height="129.5"/>
  <object id="12" x="9.5" y="128.5" width="134.25" height="14.75"/>
  <object id="13" x="224.25" y="12.5" width="15.75" height="131.75"/>
  <object id="14" x="192.25" y="128" width="34.5" height="15.75"/>
  <object id="15" x="127.75" y="140.5" width="16.25" height="116"/>
  <object id="16" x="192.25" y="143" width="15.5" height="49.75"/>
  <object id="17" x="142.25" y="239.75" width="146.25" height="16.75"/>
  <object id="18" x="205.25" y="176.25" width="130.75" height="16.75"/>
  <object id="20" x="272.75" y="240.5" width="14.75" height="142.75"/>
  <object id="21" x="168.25" y="367.5" width="109.5" height="16"/>
  <object id="22" x="152" y="311.75" width="15.75" height="72.75"/>
  <object id="24" x="80" y="311.5" width="87.5" height="16.5"/>
  <object id="25" x="80" y="216.25" width="16" height="101.75"/>
  <object id="26" x="0.25" y="215.75" width="97.25" height="16.25"/>
  <object id="28" x="0.666667" y="222.667" width="15.3333" height="210.667"/>
  <object id="29" x="10" y="416.667" width="276.667" height="16.6667"/>
  <object id="30" x="272" y="424.75" width="16" height="151.5"/>
  <object id="31" x="144" y="560.5" width="143.75" height="15.5"/>
  <object id="32" x="144.25" y="535.75" width="15.25" height="25.25"/>
  <object id="33" x="157.25" y="536.5" width="34.5" height="14.5"/>
  <object id="34" x="176.25" y="511.5" width="15.5" height="28.25"/>
  <object id="35" x="187.25" y="511.75" width="52" height="16"/>
  <object id="36" x="224.25" y="455.75" width="14.5" height="56.75"/>
  <object id="37" x="23.25" y="455.75" width="215" height="16.75"/>
  <object id="38" x="23.75" y="467" width="15" height="60.5"/>
  <object id="39" x="33.75" y="511.75" width="30.25" height="16.75"/>
  <object id="40" x="48.5" y="526.5" width="14.75" height="24.25"/>
  <object id="41" x="49.5" y="536.5" width="45.5" height="16.5"/>
  <object id="42" x="79.25" y="549.25" width="16.5" height="43.25"/>
  <object id="43" x="72" y="575.25" width="15.75" height="96.25"/>
  <object id="44" x="84.5" y="656.25" width="35.5" height="15.75"/>
  <object id="45" x="104" y="670.5" width="15.75" height="114"/>
  <object id="46" x="120.25" y="769" width="14.75" height="118.25"/>
  <object id="47" x="130.25" y="872.25" width="109.75" height="15.25"/>
  <object id="48" x="223.5" y="846.5" width="16.5" height="27"/>
  <object id="49" x="230" y="846.75" width="81.5" height="16"/>
  <object id="50" x="296.25" y="839.75" width="111" height="16"/>
  <object id="51" x="392.75" y="853" width="15.25" height="155.75"/>
  <object id="52" x="287.75" y="993" width="119.75" height="15"/>
  <object id="53" x="288.75" y="920" width="15" height="74.25"/>
  <object id="54" x="31" y="919" width="272.5" height="16.5"/>
  <object id="55" x="31.25" y="933" width="16.875" height="75.75"/>
  <object id="56" x="7.875" y="991.875" width="40.5" height="15.875"/>
  <object id="57" x="7.81818" y="1006.36" width="16.3636" height="138"/>
  <object id="58" x="24.1818" y="1127.64" width="15.6364" height="144.364"/>
  <object id="59" x="38.75" y="1256.5" width="201" height="15"/>
  <object id="60" x="223.5" y="1231.25" width="16.25" height="28"/>
  <object id="61" x="232.25" y="1231.5" width="79.5" height="15.5"/>
  <object id="62" x="296.5" y="1103.75" width="15.25" height="129.5"/>
  <object id="63" x="72.25" y="1103.75" width="230.25" height="16.25"/>
  <object id="64" x="72" y="1055.25" width="16.25" height="51.75"/>
  <object id="65" x="84" y="1055.33" width="491.333" height="16.6667"/>
  <object id="66" x="559.667" y="1070" width="15.3333" height="106.667"/>
  <object id="67" x="415.667" y="1159" width="146.667" height="17.3333"/>
  <object id="68" x="415.333" y="1172" width="16.6667" height="164.667"/>
  <object id="69" x="360.333" y="1319.67" width="59.6667" height="16.6667"/>
  <object id="72" x="360" y="1332" width="15.3333" height="51.6667"/>
  <object id="73" x="336.333" y="1367.67" width="28.3333" height="16.3333"/>
  <object id="74" x="335.667" y="1381.33" width="15.3333" height="81.6667"/>
  <object id="75" x="347.333" y="1448.33" width="204.667" height="14.6667"/>
  <object id="76" x="536.333" y="1423.67" width="15.6667" height="30.3333"/>
  <object id="77" x="547" y="1424" width="100.333" height="16"/>
  <object id="78" x="631.667" y="1319.33" width="15.3333" height="106.667"/>
  <object id="79" x="480" y="1319" width="161.667" height="17.3333"/>
  <object id="80" x="480" y="1223" width="15.3333" height="98"/>
  <object id="81" x="494" y="1223" width="81.6667" height="16"/>
  <object id="82" x="559.667" y="1237" width="15.3333" height="25.6667"/>
  <object id="83" x="566" y="1248.5" width="362" height="15"/>
  <object id="84" x="912.5" y="1223" width="15" height="27"/>
  <object id="85" x="924" y="1223" width="107.5" height="16.5"/>
  <object id="86" x="624" y="1056.5" width="239.5" height="14.5"/>
  <object id="87" x="623.5" y="1184.5" width="72.25" height="15"/>
  <object id="88" x="623.5" y="1069" width="16" height="115"/>
  <object id="89" x="847.5" y="1069" width="15" height="116.5"/>
  <object id="90" x="1016" y="1236.5" width="16.5" height="156.5"/>
  <object id="91" x="950.5" y="1375" width="75" height="17"/>
  <object id="92" x="935.5" y="1280" width="16.5" height="112.5"/>
  <object id="93" x="823.5" y="1279.5" width="118" height="16.75"/>
  <object id="94" x="696" y="1295.75" width="144.5" height="16.75"/>
  <object id="95" x="695.75" y="1310.5" width="15.5" height="105"/>
  <object id="96" x="707.25" y="1400.25" width="132.25" height="15.5"/>
  <object id="97" x="823.75" y="1343.5" width="15.5" height="61.5"/>
  <object id="98" x="834.5" y="1344" width="53" height="16"/>
  <object id="99" x="872" y="1358.5" width="15" height="96.75"/>
  <object id="100" x="886.5" y="1439.5" width="145.25" height="16.5"/>
  <object id="101" x="1015.5" y="1452.5" width="16.25" height="107.25"/>
  <object id="102" x="751.667" y="1543.67" width="267.333" height="17"/>
  <object id="103" x="751.333" y="1557" width="16.6667" height="75"/>
  <object id="104" x="662.667" y="1615" width="92" height="17.3333"/>
  <object id="105" x="648" y="1567.67" width="15.3333" height="64"/>
  <object id="106" x="192.667" y="1565.33" width="470.667" height="18.6667"/>
  <object id="107" x="192" y="1520" width="16" height="46.5"/>
  <object id="108" x="201.75" y="1520" width="61.75" height="15"/>
  <object id="109" x="248.25" y="1319.25" width="15.25" height="200.75"/>
  <object id="110" x="95.75" y="1319.5" width="157.75" height="16"/>
  <object id="111" x="96" y="1334.25" width="15.5" height="50.5"/>
  <object id="112" x="48" y="1367.5" width="55.75" height="17"/>
  <object id="113" x="48" y="1383.25" width="15.5" height="153.75"/>
  <object id="114" x="60.5" y="1520" width="82.75" height="16.75"/>
  <object id="115" x="127.75" y="1533.25" width="15.75" height="114.5"/>
  <object id="116" x="141" y="1632" width="171.25" height="16.75"/>
  <object id="117" x="296.25" y="1646.5" width="15.5" height="121.25"/>
  <object id="118" x="310.75" y="1751.5" width="89.25" height="17"/>
  <object id="119" x="383.75" y="1766.5" width="15.75" height="56.5"/>
  <object id="120" x="392.5" y="1808.25" width="183.5" height="15.5"/>
  <object id="121" x="560" y="1680.5" width="15.75" height="133.5"/>
  <object id="122" x="392.25" y="1679.75" width="171.25" height="15.75"/>
  <object id="123" x="360.25" y="1688" width="47.5" height="16"/>
  <object id="124" x="359.5" y="1631.75" width="16.75" height="57.25"/>
  <object id="125" x="374.25" y="1632.25" width="225.25" height="16"/>
  <object id="126" x="584" y="1646" width="15.25" height="49.25"/>
  <object id="127" x="596.25" y="1680" width="236.25" height="15.5"/>
  <object id="128" x="816.25" y="1607.5" width="15.75" height="77"/>
  <object id="129" x="826.5" y="1608" width="205.25" height="16"/>
  <object id="130" x="1015.75" y="1621.25" width="16" height="195"/>
  <object id="131" x="1030.25" y="1800.25" width="233.75" height="15"/>
  <object id="132" x="1248" y="1607.25" width="16.25" height="194.75"/>
  <object id="133" x="1260.75" y="1608.25" width="99.5" height="15.5"/>
  <object id="134" x="1344" y="1462.5" width="16.25" height="147.5"/>
  <object id="135" x="1355" y="1463" width="52.75" height="16"/>
  <object id="136" x="1391.5" y="1160" width="16.5" height="307.5"/>
  <object id="137" x="1295.5" y="1159.5" width="108.5" height="15.5"/>
  <object id="138" x="1296" y="1008" width="15.5" height="153.5"/>
  <object id="139" x="1310.5" y="1007.5" width="24.5" height="17"/>
  <object id="140" x="1320" y="1019.5" width="16" height="35"/>
  <object id="141" x="1328.5" y="1040" width="183.5" height="15.5"/>
  <object id="142" x="1495" y="840" width="16.5" height="206.5"/>
  <object id="143" x="1463.5" y="839.5" width="36" height="15"/>
  <object id="144" x="1464" y="511" width="15.5" height="334"/>
  <object id="146" x="1368.5" y="510.5" width="110.5" height="17.5"/>
  <object id="147" x="1368" y="455" width="16" height="59"/>
  <object id="148" x="1380.75" y="456" width="27" height="15.75"/>
  <object id="149" x="1391.75" y="295.5" width="16.25" height="163"/>
  <object id="150" x="1401.75" y="296" width="61.75" height="15.75"/>
  <object id="151" x="1448.5" y="215" width="15.5" height="83.5"/>
  <object id="152" x="1424" y="215.5" width="24.75" height="16.25"/>
  <object id="153" x="1424" y="71.5" width="15.75" height="146.25"/>
  <object id="154" x="1344.25" y="71.25" width="82.25" height="17.25"/>
  <object id="155" x="1343.75" y="82" width="16" height="77.5"/>
  <object id="156" x="1247.75" y="143.75" width="100" height="15.75"/>
  <object id="157" x="1247.75" y="155.5" width="16" height="155.75"/>
  <object id="158" x="1262" y="295.75" width="49.75" height="16.25"/>
  <object id="159" x="1295.75" y="311.75" width="15.5" height="23.75"/>
  <object id="160" x="1310" y="320" width="33.5" height="16"/>
  <object id="161" x="1328" y="333.5" width="15.5" height="74"/>
  <object id="162" x="1152.25" y="391" width="176.75" height="16.5"/>
  <object id="163" x="1152" y="320.25" width="15.75" height="74"/>
  <object id="164" x="1136.25" y="119.75" width="15.75" height="216.25"/>
  <object id="165" x="960.5" y="119.25" width="178" height="17.5"/>
  <object id="166" x="959.75" y="133.25" width="16.25" height="58.25"/>
  <object id="167" x="864.25" y="175" width="96" height="16.5"/>
  <object id="168" x="863.75" y="7.75" width="15.75" height="169.5"/>
  <object id="169" x="583.667" y="8" width="295.667" height="15.6667"/>
  <object id="170" x="287.667" y="-0.333333" width="312.333" height="16.6667"/>
  <object id="171" x="287.667" y="14.6667" width="16" height="104"/>
  <object id="172" x="301.333" y="103.667" width="35" height="16.3333"/>
  <object id="173" x="320" y="118.667" width="15.3333" height="57.6667"/>
  <object id="174" x="1351.75" y="719.5" width="64.5" height="17.5"/>
  <object id="175" x="1399.5" y="734.5" width="16.75" height="121.25"/>
  <object id="176" x="1390.5" y="841.5" width="17" height="117.75"/>
  <object id="177" x="1232" y="943" width="163.25" height="17.5"/>
  <object id="178" x="1232" y="958.75" width="16.5" height="217.5"/>
  <object id="179" x="912" y="1160" width="325" height="15"/>
  <object id="180" x="911.5" y="1055.5" width="16.5" height="106"/>
  <object id="181" x="920.5" y="1057" width="127" height="14"/>
  <object id="182" x="1032.5" y="816" width="16" height="244"/>
  <object id="183" x="1044" y="815.5" width="100.5" height="16"/>
  <object id="184" x="1128" y="608.5" width="15.5" height="209"/>
  <object id="185" x="1103.5" y="607.5" width="40.5" height="15"/>
  <object id="186" x="1104.5" y="574.5" width="14.5" height="36"/>
  <object id="187" x="1118.5" y="575" width="297" height="17"/>
  <object id="188" x="1400" y="590.5" width="14.5" height="80.5"/>
  <object id="189" x="1352" y="655.5" width="52.5" height="15.5"/>
  <object id="192" x="1351" y="623.5" width="16.5" height="32.5"/>
  <object id="193" x="1176.5" y="623" width="179.5" height="17"/>
  <object id="194" x="1176.5" y="637.5" width="15.5" height="273.5"/>
  <object id="195" x="1185.5" y="895.5" width="110.5" height="17"/>
  <object id="196" x="1279" y="799" width="17.5" height="107"/>
  <object id="197" x="1293.5" y="800.5" width="74.5" height="14.5"/>
  <object id="198" x="1352.5" y="729.5" width="15" height="74.5"/>
  <object id="200" x="223.636" y="623.818" width="88.3636" height="16"/>
  <object id="201" x="224" y="638.364" width="16.1818" height="33.6364"/>
  <object id="202" x="168" y="655.636" width="58" height="16.3636"/>
  <object id="203" x="168.182" y="671.091" width="15.2727" height="88.1818"/>
  <object id="205" x="181.273" y="743.818" width="130.727" height="15.4545"/>
  <object id="206" x="296.182" y="758.182" width="15.8182" height="33.8182"/>
  <object id="207" x="309.818" y="775.636" width="146" height="16.1818"/>
  <object id="208" x="440.182" y="744.182" width="15.8182" height="32.3636"/>
  <object id="209" x="391.818" y="743.818" width="50.9091" height="15.8182"/>
  <object id="210" x="392.182" y="696" width="15.6364" height="51.2727"/>
  <object id="211" x="344.182" y="696.182" width="50.3636" height="15.2727"/>
  <object id="212" x="344.182" y="647.818" width="15.8182" height="50"/>
  <object id="213" x="296" y="648.182" width="54.3636" height="15.4545"/>
  <object id="214" x="296" y="636.727" width="15.8182" height="13.4545"/>
  <object id="216" x="1079.67" y="1223" width="264.333" height="16.6667"/>
  <object id="217" x="1328.67" y="1235" width="14.6667" height="180"/>
  <object id="218" x="1256.33" y="1399" width="73.6667" height="16"/>
  <object id="219" x="1256.33" y="1296.67" width="15.3333" height="106"/>
  <object id="220" x="1127.33" y="1295.33" width="133.333" height="16"/>
  <object id="221" x="1127.67" y="1308.33" width="15.3333" height="155.667"/>
  <object id="222" x="1139.33" y="1448.33" width="132.667" height="15"/>
  <object id="223" x="1255.67" y="1462.67" width="40" height="17"/>
  <object id="224" x="1280" y="1478" width="15" height="81.6667"/>
  <object id="225" x="1183.33" y="1543.33" width="100" height="16"/>
  <object id="226" x="1182.67" y="1556.67" width="17.3333" height="195.667"/>
  <object id="227" x="1080" y="1737.67" width="106.333" height="13.6667"/>
  <object id="228" x="1080.67" y="1239.33" width="15.3333" height="504"/>
  <object id="230" x="630.667" y="502.667" width="17.3333" height="385.333"/>
  <object id="231" x="608" y="870" width="26" height="18"/>
  <object id="232" x="504.667" y="885.333" width="119.333" height="17.3333"/>
  <object id="233" x="504" y="900" width="14.6667" height="106.667"/>
  <object id="234" x="455.333" y="990" width="56" height="16.6667"/>
  <object id="235" x="456.667" y="839.333" width="15.3333" height="153.333"/>
  <object id="236" x="466" y="839.333" width="53.3333" height="15.3333"/>
  <object id="237" x="504.667" y="680.667" width="14" height="157.333"/>
  <object id="238" x="337.333" y="504.667" width="299.333" height="14"/>
  <object id="239" x="336" y="516.667" width="14.6667" height="57.3333"/>
  <object id="240" x="340.667" y="560" width="34.6667" height="15.3333"/>
  <object id="241" x="360" y="573.333" width="14" height="24.6667"/>
  <object id="242" x="365.333" y="583.333" width="57.3333" height="14.6667"/>
  <object id="243" x="409.333" y="593.333" width="12.6667" height="53.3333"/>
  <object id="244" x="414" y="631.333" width="56.6667" height="15.3333"/>
  <object id="245" x="457.333" y="644.667" width="14" height="50"/>
  <object id="246" x="464" y="680" width="54.6667" height="14.6667"/>
  <object id="248" x="798.667" y="70.6667" width="16" height="386"/>
  <object id="249" x="584" y="72" width="216" height="16"/>
  <object id="250" x="584" y="81.3333" width="16.6667" height="108.667"/>
  <object id="251" x="505.333" y="175.333" width="84" height="15.3333"/>
  <object id="252" x="503.333" y="103.333" width="15.3333" height="78"/>
  <object id="253" x="383.333" y="102.667" width="124.667" height="16.6667"/>
  <object id="254" x="384" y="114.667" width="15.3333" height="140"/>
  <object id="256" x="336" y="238" width="56" height="18"/>
  <object id="257" x="336.667" y="254" width="14.6667" height="200.667"/>
  <object id="258" x="344" y="439.333" width="63.3333" height="15.3333"/>
  <object id="259" x="390.667" y="342" width="17.3333" height="101.333"/>
  <object id="260" x="407.333" y="239.333" width="16.6667" height="120"/>
  <object id="261" x="419.333" y="238.667" width="252" height="16"/>
  <object id="262" x="656.667" y="249.333" width="15.3333" height="62"/>
  <object id="263" x="559.333" y="296" width="108" height="14.6667"/>
  <object id="264" x="560.667" y="302.667" width="14.6667" height="56"/>
  <object id="265" x="455.333" y="343.333" width="110" height="16.6667"/>
  <object id="266" x="457.333" y="358" width="14.6667" height="95.3333"/>
  <object id="267" x="455.333" y="439.333" width="360" height="16"/>
  <object id="269" x="1303.5" y="455" width="16.5" height="73.5"/>
  <object id="270" x="1040" y="511" width="267.5" height="17"/>
  <object id="271" x="1039.5" y="523.5" width="15.5" height="114.5"/>
  <object id="272" x="888" y="623.5" width="167.5" height="15.5"/>
  <object id="273" x="888.5" y="633.5" width="15" height="124.5"/>
  <object id="274" x="864" y="742.5" width="39" height="16.5"/>
  <object id="275" x="864" y="756" width="15.5" height="59"/>
  <object id="276" x="874" y="799" width="53" height="17"/>
  <object id="277" x="912.5" y="814" width="15.5" height="25"/>
  <object id="278" x="923.5" y="823.5" width="60" height="15.5"/>
  <object id="279" x="967.5" y="837.5" width="17" height="169"/>
  <object id="280" x="768.5" y="990" width="202.5" height="17"/>
  <object id="281" x="768.5" y="919.5" width="15.5" height="71.5"/>
  <object id="282" x="719.5" y="920" width="50.5" height="15"/>
  <object id="283" x="720" y="872.5" width="15" height="50.5"/>
  <object id="284" x="695.5" y="871" width="29.5" height="16.5"/>
  <object id="285" x="696" y="503.5" width="16.5" height="369"/>
  <object id="288" x="707" y="503" width="173" height="16"/>
  <object id="289" x="864.5" y="240.5" width="16.5" height="265.5"/>
  <object id="290" x="876.5" y="239" width="99" height="17.5"/>
  <object id="291" x="959.5" y="252" width="16" height="36"/>
  <object id="292" x="971.5" y="270.5" width="100" height="17"/>
  <object id="293" x="1056.5" y="284" width="14.5" height="75"/>
  <object id="294" x="1066.5" y="343.5" width="36" height="15.5"/>
  <object id="295" x="1088" y="357" width="15.5" height="113"/>
  <object id="296" x="1089" y="455" width="229" height="16"/>
  <object id="419" x="737.875" y="1185" width="125.25" height="15"/>
  <object id="420" x="873" y="-3" width="549" height="27"/>
  <object id="421" x="1391" y="15" width="26" height="59"/>
  <object id="423" x="232" y="-4.66667" width="64" height="32"/>
  <object id="425" x="0.666667" y="142" width="24" height="82"/>
  <object id="426" x="0" y="428" width="32.6667" height="576"/>
  <object id="427" x="-2" y="1138" width="34" height="690"/>
  <object id="428" x="23" y="1799" width="370" height="28"/>
  <object id="429" x="570" y="1798" width="450" height="28"/>
  <object id="430" x="958" y="1771" width="62" height="40"/>
  <object id="441" x="12" y="1432" width="40" height="40"/>
 </objectgroup>
 <layer id="9" name="Objects" width="78" height="78">
  <data encoding="csv">
0,0,0,0,100,0,0,0,0,0,0,0,0,0,120,0,0,0,0,0,0,0,107,0,0,0,0,0,0,0,0,0,0,0,0,0,0,0,0,0,0,0,0,0,0,0,0,0,0,0,0,0,0,0,0,0,0,0,0,0,0,0,0,0,0,0,0,0,0,0,0,0,0,0,0,0,0,0,
0,91,0,0,0,92,0,0,0,0,0,0,0,0,0,0,0,0,0,0,133,111,107,0,0,0,0,0,0,0,0,0,0,0,0,0,0,0,0,0,0,0,0,0,0,0,0,0,0,0,0,0,0,0,0,0,0,0,0,0,0,0,0,0,0,0,0,0,0,0,0,0,0,0,0,0,0,0,
0,0,0,0,0,0,106,0,0,0,0,0,0,0,108,0,0,108,0,108,0,112,107,0,0,0,131,0,0,0,0,0,0,0,0,0,0,0,0,0,0,0,0,0,0,0,0,0,0,0,0,0,0,0,0,0,0,0,0,0,0,0,0,0,0,0,0,0,0,0,0,0,0,0,0,0,0,0,
0,0,117,0,0,0,106,111,0,0,0,0,0,0,109,109,0,109,109,109,109,0,0,0,0,0,0,0,0,0,0,0,0,0,0,0,0,0,0,0,0,0,0,0,0,0,0,0,0,0,0,0,0,0,0,0,0,0,0,0,0,0,0,0,0,0,0,0,0,0,0,0,0,0,0,0,0,0,
0,0,0,0,0,0,0,0,0,0,0,0,0,0,0,0,0,0,0,0,0,0,0,0,0,0,0,0,0,0,0,0,0,0,0,0,0,0,0,0,0,0,0,0,0,0,0,0,0,0,0,0,0,0,0,0,0,94,95,0,0,0,0,0,0,0,0,0,0,0,0,0,0,0,0,0,0,0,
0,0,0,0,0,0,0,0,0,0,0,0,0,0,0,0,0,0,0,0,0,0,0,0,0,0,0,0,0,0,0,0,0,0,0,0,0,0,0,0,0,0,129,0,0,0,126,0,0,0,0,0,0,0,0,0,0,0,0,0,0,0,0,0,0,0,0,0,0,0,0,0,0,0,0,0,0,0,
0,0,0,0,0,0,0,0,0,0,0,0,0,0,0,0,0,0,0,0,0,0,98,91,0,0,0,0,0,0,0,0,0,0,0,0,0,0,0,0,0,127,0,0,110,113,0,0,0,0,0,0,0,0,0,0,0,0,0,115,0,0,0,0,0,0,0,0,0,0,0,0,0,0,0,0,0,0,
0,0,0,0,0,0,0,0,0,0,0,0,0,0,0,0,0,0,0,0,0,0,0,0,0,0,0,0,0,0,0,0,0,0,0,0,0,0,0,0,0,0,0,106,133,107,0,0,0,0,0,0,0,0,0,107,0,0,0,0,0,0,0,0,0,0,0,0,0,0,0,0,0,0,0,0,0,0,
0,0,0,0,0,0,0,0,0,0,0,0,0,0,0,0,0,0,0,0,0,0,0,0,0,0,0,0,0,0,0,0,0,0,0,0,0,0,0,0,0,0,0,0,109,0,0,0,0,0,0,0,0,0,112,107,0,0,0,0,0,0,0,0,0,0,0,0,0,0,0,0,0,0,0,0,0,0,
0,125,132,0,0,0,0,130,0,0,0,0,0,0,0,0,0,0,0,0,0,0,0,0,0,0,0,0,0,0,0,0,0,0,0,0,0,0,0,0,0,0,0,0,0,0,0,0,0,0,0,0,0,0,0,0,0,0,0,0,0,0,0,0,0,0,0,0,0,0,0,0,0,0,0,0,0,0,
0,108,0,0,0,0,0,0,0,0,0,0,0,0,0,0,0,0,0,0,0,0,0,96,0,96,0,0,0,0,0,0,0,0,0,0,0,0,0,0,0,0,127,0,0,0,0,0,0,0,0,0,0,0,0,0,0,113,0,0,0,0,0,0,0,0,0,0,0,0,0,0,0,0,0,0,0,0,
0,109,109,0,0,0,0,0,0,0,0,0,0,0,0,0,0,0,0,0,0,115,0,0,0,0,0,0,0,0,0,0,0,0,130,0,0,0,0,0,0,0,0,0,0,0,0,0,0,0,0,0,0,116,0,0,0,109,109,0,0,0,0,0,0,0,0,0,0,0,0,0,0,0,0,0,0,0,
0,0,0,0,0,0,0,0,0,0,0,0,0,0,0,0,0,0,0,113,0,0,0,0,0,0,0,0,0,0,0,0,0,0,0,0,0,0,0,0,0,0,0,0,0,0,0,0,0,0,0,0,0,0,0,0,0,0,0,0,0,0,0,0,0,0,0,0,0,0,0,0,0,0,0,0,0,0,
0,0,0,0,0,0,0,0,0,0,0,0,0,0,0,0,0,0,117,0,0,0,106,0,0,0,0,0,0,0,0,0,0,0,0,0,0,0,0,0,0,0,0,0,0,0,0,0,0,0,0,0,0,0,0,0,0,0,0,0,0,0,0,0,0,0,0,0,0,0,0,0,0,0,0,0,0,0,
0,0,0,106,108,0,0,0,0,0,0,0,0,0,0,0,0,0,0,0,0,0,0,0,0,0,0,0,0,0,0,0,0,0,0,0,0,0,0,0,0,0,0,0,0,0,0,0,0,0,0,0,0,0,0,0,0,0,0,0,0,0,0,0,0,0,0,0,0,0,0,0,0,0,0,0,0,0,
0,0,123,0,109,109,0,0,0,0,0,0,0,0,0,0,0,0,0,0,0,0,0,0,0,0,0,0,0,0,0,0,0,0,0,0,0,0,0,0,0,0,0,0,0,0,0,0,0,0,0,0,0,0,0,0,0,0,0,0,0,0,0,0,0,0,0,0,0,0,0,0,0,0,0,0,0,0,
0,0,0,0,0,0,0,0,120,0,0,0,0,0,0,0,0,0,0,0,0,0,0,0,0,0,0,0,0,0,0,0,0,0,0,0,0,0,0,0,0,0,0,0,0,0,0,0,0,0,0,0,0,0,0,0,0,0,0,0,0,0,0,0,0,0,0,0,0,0,0,0,0,0,0,0,0,0,
0,0,0,0,0,0,0,0,0,0,0,0,0,0,0,0,0,0,0,0,0,0,0,0,0,0,0,0,0,0,0,0,0,0,0,0,0,0,0,0,0,0,0,0,0,0,130,0,0,0,0,0,0,0,0,0,0,0,0,0,0,0,0,0,0,0,0,0,0,0,0,0,0,0,0,0,0,0,
0,0,0,0,0,0,0,0,0,0,0,0,0,0,0,0,0,0,0,0,0,0,0,0,0,0,0,0,0,0,0,0,0,0,0,0,0,0,0,0,0,0,0,0,0,0,0,0,0,0,0,0,0,0,0,0,0,0,0,0,0,0,0,0,0,0,0,0,0,0,0,0,0,0,0,0,0,0,
0,0,0,0,0,0,0,0,118,0,0,0,0,0,0,0,0,0,0,0,0,0,0,0,0,0,0,0,0,0,0,0,0,0,0,0,0,0,0,0,0,0,0,0,0,0,0,0,0,0,0,0,0,0,0,0,0,0,0,0,0,0,0,0,0,0,0,0,0,0,0,0,0,0,0,0,0,0,
0,0,92,0,0,0,94,94,133,0,0,0,0,0,0,0,0,0,0,0,0,0,131,0,0,0,0,0,0,0,0,0,0,0,0,126,0,0,0,0,0,0,0,0,0,0,0,0,0,0,0,0,0,0,0,0,0,0,0,0,0,0,0,0,0,0,0,0,0,0,0,0,0,0,0,0,0,0,
0,0,0,0,0,0,0,0,0,0,0,0,0,0,0,0,0,0,0,0,0,0,0,0,0,0,0,0,0,0,0,0,0,0,0,0,0,0,0,0,0,0,0,0,0,0,0,0,0,0,0,0,0,0,0,0,0,0,0,0,0,0,0,0,0,0,0,0,0,0,0,0,0,0,0,0,0,0,
0,0,0,0,0,0,0,0,0,0,0,0,0,0,0,0,0,0,0,0,0,0,0,0,0,0,0,0,0,0,0,0,0,0,0,0,0,0,0,0,0,0,0,0,0,0,0,0,0,0,0,0,0,0,0,0,0,0,0,0,0,0,0,0,0,0,0,0,0,0,0,0,0,0,0,0,0,0,
0,0,0,0,0,0,0,0,0,0,0,0,0,0,0,0,0,0,0,0,0,0,0,0,0,0,0,0,0,0,0,0,0,0,0,0,0,0,0,0,0,0,0,0,0,0,0,0,0,0,0,0,0,130,0,0,0,0,0,0,0,0,0,0,0,0,0,0,0,0,0,0,0,0,0,0,0,0,
0,0,0,0,110,0,0,93,0,95,94,94,0,0,0,0,0,0,0,0,0,0,0,0,0,0,0,0,0,0,0,0,0,0,0,0,0,0,0,0,0,0,0,0,0,0,0,0,0,0,0,0,0,0,0,0,0,0,0,0,0,0,0,0,0,0,0,0,0,0,0,0,0,0,0,0,0,0,
0,0,0,0,0,107,0,0,0,0,0,0,0,0,0,0,117,0,0,0,0,0,0,0,0,0,0,0,0,0,0,0,0,0,0,0,0,0,0,0,0,0,0,0,0,0,0,0,0,0,0,0,0,0,0,0,0,0,0,0,0,0,0,0,0,0,0,0,0,0,0,0,0,0,0,0,0,0,
0,0,0,0,112,107,0,0,0,0,0,0,0,0,130,0,0,0,0,0,0,0,0,0,0,0,0,115,0,0,0,0,0,0,0,0,0,0,0,103,0,0,0,0,0,0,0,0,0,0,0,0,0,0,0,0,101,0,0,0,0,0,0,0,0,0,0,0,0,0,0,0,0,0,0,0,0,0,
0,0,0,0,0,0,0,0,0,0,0,0,0,0,0,0,0,0,0,0,0,0,0,0,0,0,0,0,0,0,0,0,0,0,0,0,0,0,97,0,0,97,0,0,0,0,0,0,0,0,93,0,92,0,0,0,120,0,0,0,0,0,0,0,0,0,0,0,0,0,0,0,0,0,0,0,0,0,
0,0,0,0,0,0,0,0,0,0,0,0,0,0,0,0,0,0,0,0,0,0,0,0,0,0,0,0,0,0,0,0,0,0,0,0,0,0,0,0,0,0,0,0,0,0,0,0,0,0,0,0,0,0,0,0,0,0,0,0,0,0,0,0,0,0,0,0,0,0,0,0,0,0,0,0,0,0,
0,0,0,0,0,0,0,0,0,0,0,0,0,0,0,0,0,0,0,0,0,0,0,0,0,0,0,0,0,0,0,0,0,0,0,0,0,0,0,0,106,0,107,0,0,122,114,0,0,0,101,107,0,104,104,0,0,0,0,0,0,0,0,0,0,0,0,0,0,0,0,0,0,0,0,0,0,0,
0,0,0,0,0,0,0,0,0,0,0,0,0,0,0,0,0,0,0,0,0,0,0,0,0,0,0,0,0,0,0,0,0,0,0,0,0,0,0,0,106,111,107,0,106,111,107,0,0,0,112,107,0,108,0,0,0,0,0,0,0,0,0,0,0,0,0,0,0,0,0,0,0,0,0,0,0,0,
0,0,0,0,0,0,0,0,0,0,0,0,0,0,0,0,0,0,0,0,0,0,0,0,0,0,0,0,0,0,0,0,0,0,0,0,0,0,0,91,106,111,107,0,0,0,0,0,0,0,0,107,0,109,109,0,0,0,0,0,0,0,0,0,0,0,0,0,0,0,0,0,0,0,0,0,0,0,
0,0,0,0,0,0,110,0,92,0,0,0,0,0,0,0,0,0,0,0,0,0,0,0,0,0,0,0,0,0,0,0,0,0,0,0,0,0,0,0,0,0,0,0,0,0,0,0,0,0,112,107,0,0,0,127,0,0,0,0,131,0,0,0,0,0,0,0,0,0,0,0,0,0,0,0,0,0,
0,0,0,0,0,0,0,107,0,0,0,0,0,126,0,0,0,0,0,0,0,0,0,0,0,0,0,0,0,0,0,0,0,0,0,0,0,0,0,0,0,0,0,0,127,0,0,0,0,0,0,107,0,0,0,0,0,0,0,0,0,0,0,0,0,0,0,0,0,0,0,0,0,0,0,0,0,0,
0,0,0,0,0,0,111,110,110,0,0,0,0,0,0,0,0,0,0,0,126,0,0,0,0,0,0,0,0,0,0,0,0,0,0,0,0,0,0,0,0,0,0,0,0,0,0,0,0,0,112,107,0,0,0,0,0,0,0,0,0,0,0,0,0,0,0,0,0,0,0,0,0,0,0,0,0,0,
0,0,0,0,0,0,111,108,0,0,0,0,0,0,0,0,0,0,0,0,0,0,0,0,0,0,0,0,0,0,0,0,0,0,0,0,0,0,0,0,0,0,0,0,0,0,0,0,0,0,0,107,0,0,0,0,0,0,0,0,0,0,0,0,0,0,0,0,0,0,0,0,0,0,0,0,0,0,
0,0,0,0,0,0,0,0,0,0,0,0,0,0,0,0,0,0,0,0,0,0,0,0,0,0,0,0,0,0,0,0,0,0,0,0,0,0,0,0,0,0,0,0,0,0,0,0,0,0,112,107,133,0,0,0,0,0,0,0,0,0,0,0,0,0,0,0,0,0,0,0,0,0,0,0,0,0,
0,0,0,0,0,0,0,0,0,0,0,0,0,0,0,0,0,0,0,0,0,0,0,0,0,0,0,0,0,0,0,0,0,0,0,0,0,0,0,0,0,0,0,0,0,0,0,0,0,0,0,0,0,0,0,0,0,0,0,0,0,0,0,0,0,0,0,0,0,0,0,0,0,0,0,0,0,0,
0,0,0,0,0,0,0,0,0,0,0,0,0,0,0,0,0,0,0,0,0,0,0,0,0,0,0,0,0,0,0,0,0,0,0,0,0,0,0,0,0,0,0,0,0,0,0,0,0,0,0,0,0,0,0,0,0,0,0,0,0,125,0,0,0,0,0,0,0,0,0,0,0,0,0,0,0,0,
0,0,126,0,110,110,0,110,110,0,95,95,0,0,0,0,0,0,130,0,0,0,0,0,0,0,0,0,0,0,0,0,0,0,0,0,0,0,0,0,0,0,0,0,0,0,0,0,0,0,0,0,0,0,0,0,0,0,0,0,0,126,0,0,0,0,0,0,0,0,0,0,0,0,0,0,0,0,
0,0,0,0,108,0,0,108,0,0,0,0,0,0,0,0,0,0,0,0,0,0,0,0,0,92,0,0,0,0,0,0,0,0,0,0,0,0,0,0,0,0,0,0,0,0,0,0,0,0,0,0,0,0,0,0,0,0,0,0,0,123,0,0,0,0,0,0,0,0,0,0,0,0,0,0,0,0,
0,0,0,0,109,109,0,109,109,0,0,0,0,0,0,0,0,0,0,0,0,0,0,0,0,92,0,0,0,0,0,0,0,0,0,0,0,0,0,0,0,0,0,0,0,0,0,0,0,0,0,0,0,0,0,0,0,0,0,0,0,122,0,0,0,0,0,0,0,0,0,0,0,0,0,0,0,0,
0,0,0,0,0,0,0,0,0,0,0,0,0,0,0,0,0,0,0,0,0,0,0,0,0,0,0,0,0,0,0,0,0,0,0,0,0,0,0,0,0,0,0,0,0,0,0,0,0,0,0,0,130,0,0,0,0,0,0,0,91,121,0,0,0,0,0,0,0,0,0,0,0,0,0,0,0,0,
0,0,0,0,0,0,0,0,0,0,0,123,0,0,0,0,0,0,0,0,0,0,0,0,0,0,0,0,0,0,0,131,0,0,0,0,0,0,0,0,0,0,0,0,0,0,0,0,0,0,0,0,0,0,0,0,0,0,0,0,0,0,0,0,0,0,0,0,0,0,0,0,0,0,0,0,0,0,
0,0,0,0,0,0,0,0,0,0,0,0,0,0,0,0,0,0,0,0,0,0,0,0,0,0,0,0,0,0,0,0,0,0,0,0,0,0,0,0,0,0,0,0,0,0,0,0,0,0,0,0,0,0,0,0,0,0,0,0,0,0,0,0,0,0,0,0,0,0,0,0,0,0,0,0,0,0,
0,0,0,0,0,0,0,0,0,0,0,0,0,0,0,0,0,0,0,0,0,0,0,0,0,0,0,91,0,0,0,0,0,123,0,0,0,0,0,0,0,0,0,0,0,0,0,0,0,0,0,0,0,0,0,0,0,0,0,0,0,0,0,0,0,0,0,0,0,0,0,0,0,0,0,0,0,0,
0,0,0,0,107,0,100,0,0,0,0,0,0,0,0,0,0,0,0,0,0,0,0,0,0,0,0,0,0,0,0,114,0,0,128,0,0,0,0,0,0,0,0,0,0,0,0,0,0,0,0,0,0,0,0,0,0,0,0,0,0,0,0,0,0,0,0,0,0,0,0,0,0,0,0,0,0,0,
0,0,0,112,107,0,0,105,0,0,93,0,0,0,0,0,0,0,0,0,0,0,0,0,0,0,0,0,125,0,0,0,0,0,116,0,0,0,0,0,0,0,0,0,0,0,0,0,0,0,0,0,0,0,0,0,0,0,0,0,0,0,0,0,0,0,0,0,0,0,0,0,0,0,0,0,0,0,
0,0,0,0,0,0,0,0,0,0,0,0,0,0,0,0,0,0,0,0,0,0,0,0,0,0,0,0,0,0,0,0,126,0,0,0,0,0,0,0,0,0,0,0,0,0,0,0,0,0,0,0,0,0,0,0,0,0,0,0,0,0,0,0,0,0,0,0,0,0,0,0,0,0,0,0,0,0,
0,0,106,0,0,106,0,0,106,0,0,0,0,0,0,0,0,0,0,0,0,0,0,0,0,0,0,0,0,103,0,0,0,0,0,0,0,0,0,0,0,0,0,0,0,0,0,0,0,0,0,0,0,0,0,0,0,0,0,0,0,0,0,0,0,0,0,0,0,0,0,0,0,0,0,0,0,0,
0,0,106,111,117,106,111,0,106,111,0,0,0,0,0,0,0,0,0,0,0,0,0,0,0,0,0,0,0,0,0,0,0,0,0,0,0,0,0,0,0,0,0,0,0,0,0,0,0,0,0,0,0,0,0,0,0,0,0,0,0,0,0,0,0,0,0,0,0,0,0,0,0,0,0,0,0,0,
0,0,133,0,0,0,0,0,120,0,0,0,0,0,0,0,0,0,0,0,0,0,0,0,0,0,0,0,0,0,0,130,0,0,0,0,0,0,0,0,0,0,0,0,0,0,0,0,0,0,0,0,0,0,0,0,0,0,0,0,0,0,0,0,0,0,0,0,0,0,0,0,0,0,0,0,0,0,
0,0,0,0,0,0,0,0,0,0,0,0,0,0,0,0,0,0,0,0,0,0,0,0,0,0,0,0,0,0,0,0,0,0,0,0,0,0,0,0,0,0,0,0,0,0,0,0,0,0,0,0,0,0,0,0,0,0,0,0,0,0,0,0,0,0,0,0,0,0,0,0,0,0,0,0,0,0,
0,0,0,0,0,0,0,0,0,0,0,0,0,0,0,0,0,0,0,0,0,0,0,0,0,0,0,0,0,0,0,0,0,0,124,0,0,0,0,0,0,0,0,0,0,0,0,0,0,0,0,0,0,0,0,0,0,0,0,0,0,0,0,0,0,0,0,0,0,0,0,0,0,0,0,0,0,0,
0,0,0,0,0,0,0,0,0,0,0,0,0,0,0,0,0,0,0,0,0,0,0,0,0,0,0,0,0,0,96,0,95,97,0,0,115,0,0,0,0,0,0,0,0,0,0,0,0,0,0,0,0,0,0,0,0,131,0,0,0,0,0,0,0,0,0,0,0,0,0,0,0,0,0,0,0,0,
0,0,0,0,0,0,0,0,0,0,0,0,0,0,0,0,0,0,0,0,0,0,0,0,0,0,0,0,0,0,0,0,107,0,0,0,0,0,0,0,0,0,0,0,0,0,0,0,133,98,0,98,0,0,0,0,0,0,0,0,0,0,0,0,0,0,0,0,0,0,0,0,0,0,0,0,0,0,
0,0,0,0,0,0,0,105,0,0,0,0,0,0,0,0,0,0,104,0,0,104,0,0,104,0,0,0,0,0,0,111,107,0,0,0,0,0,0,0,0,0,0,0,0,0,0,0,0,0,110,0,117,0,0,0,0,0,0,0,0,0,0,0,0,0,0,0,0,0,0,0,0,0,0,0,0,0,
0,0,0,0,0,126,0,0,0,0,0,0,0,0,0,0,0,108,0,0,108,0,0,108,0,0,0,0,0,0,0,0,0,121,0,0,0,0,0,0,0,0,0,0,0,0,0,0,0,106,0,107,0,0,0,0,0,0,0,0,0,0,0,0,0,0,0,0,0,0,0,0,0,0,0,0,0,0,
0,0,0,0,0,0,0,0,0,0,0,0,0,0,0,0,0,109,109,0,109,109,0,109,109,114,0,0,0,0,0,0,0,0,0,0,0,0,0,0,0,0,0,0,0,0,0,0,0,106,112,107,0,0,0,0,0,0,0,0,0,0,0,0,0,0,0,0,0,0,0,0,0,0,0,0,0,0,
0,0,0,0,108,0,0,0,108,0,0,0,0,0,0,0,0,0,0,122,0,0,0,0,0,0,0,0,0,0,0,0,0,0,0,0,0,0,0,0,0,0,0,0,0,0,0,0,114,0,109,0,0,0,0,0,0,0,0,0,0,0,0,0,0,0,0,0,0,0,0,0,0,0,0,0,0,0,
0,0,0,0,109,109,0,0,109,109,0,0,0,0,0,0,0,0,0,0,0,0,0,0,0,0,0,0,0,0,0,0,0,0,0,0,0,0,0,0,0,0,0,0,0,0,0,0,0,0,0,0,0,0,0,0,0,0,0,0,0,0,0,0,0,0,0,0,0,0,0,0,0,0,0,0,0,0,
0,0,0,0,0,0,0,0,0,0,0,0,0,0,0,0,0,0,0,0,0,0,0,0,0,0,0,0,0,0,0,0,0,0,0,0,0,0,0,0,0,0,0,0,0,0,0,0,0,0,0,0,0,0,0,0,0,0,0,0,0,0,0,0,0,0,0,0,0,0,0,0,0,0,0,0,0,0,
0,0,0,122,0,0,0,0,0,114,0,0,0,0,0,0,0,0,0,0,0,0,0,0,0,0,0,0,0,0,0,0,0,0,0,0,0,0,0,0,0,0,0,0,126,0,0,0,0,0,0,0,0,0,0,0,0,0,0,0,0,0,0,0,0,0,0,0,0,0,0,0,0,0,0,0,0,0,
0,0,0,0,0,0,0,0,0,0,0,0,0,0,0,0,0,0,0,0,0,0,0,0,0,0,0,0,0,0,0,0,0,0,0,0,0,0,0,0,0,0,0,0,0,0,0,0,0,0,0,0,0,0,0,0,0,0,0,0,0,0,0,0,0,0,0,0,0,0,0,0,0,0,0,0,0,0,
0,0,0,0,0,0,0,0,0,0,0,0,0,0,0,0,0,0,0,0,0,0,0,0,0,0,0,0,0,0,0,0,0,0,0,0,0,0,0,0,0,0,0,0,0,0,0,0,0,0,0,0,0,0,0,0,0,0,0,0,0,0,0,0,0,0,0,0,0,0,0,0,0,0,0,0,0,0,
0,0,0,0,0,0,0,0,0,0,0,0,0,0,0,0,0,0,0,0,0,0,0,0,0,0,0,0,0,0,0,0,0,0,0,0,0,0,0,0,0,0,0,0,0,0,0,0,0,0,0,0,0,0,0,0,0,0,0,0,0,0,0,0,0,0,0,0,0,0,0,0,0,0,0,0,0,0,
0,0,0,0,0,0,0,0,0,0,0,0,0,0,0,0,0,0,0,0,0,0,0,0,0,0,0,0,0,0,0,0,0,0,0,0,0,0,0,0,0,0,0,0,0,0,0,0,0,0,0,0,0,0,0,0,0,0,0,0,0,0,0,0,0,0,0,0,0,0,0,0,0,0,0,0,0,0,
0,0,0,0,0,0,0,0,0,130,0,0,0,0,0,0,0,0,0,0,0,0,0,0,0,0,0,0,0,0,0,0,0,0,0,0,0,0,0,0,0,0,0,0,0,0,0,0,0,0,0,0,0,0,0,0,0,0,0,0,0,0,0,0,0,0,0,0,0,0,0,0,0,0,0,0,0,0,
0,0,0,0,0,0,0,0,0,0,0,0,0,0,0,0,0,0,0,0,0,0,0,0,0,0,0,0,0,0,0,0,0,0,0,0,0,0,0,0,0,0,0,0,0,0,0,0,0,0,0,0,0,0,0,0,0,0,0,0,0,0,0,0,0,0,0,0,0,0,0,0,0,0,0,0,0,0,
0,0,0,0,0,0,0,0,0,0,0,0,0,0,0,0,0,0,0,0,0,0,0,0,0,0,0,0,0,0,0,0,131,0,0,0,0,0,0,0,0,0,0,0,0,0,0,0,0,0,0,0,0,0,0,0,0,0,0,0,0,0,0,0,0,0,0,0,0,0,0,0,0,0,0,0,0,0,
0,0,0,0,0,0,0,0,0,0,0,0,0,0,0,0,0,0,0,0,100,0,0,0,0,0,0,0,0,0,0,0,0,0,0,0,0,0,0,0,0,0,0,0,0,0,0,0,0,0,0,0,0,0,0,0,0,0,0,0,0,0,0,0,0,0,0,0,0,0,0,0,0,0,0,0,0,0,
0,0,0,0,0,0,0,0,0,0,0,0,0,0,0,0,0,105,0,0,0,0,104,0,0,0,0,0,0,0,0,0,0,0,0,0,0,0,0,0,0,0,0,0,0,0,0,0,0,0,0,0,0,0,0,0,0,0,0,0,0,0,0,0,0,0,0,0,0,0,0,0,0,0,0,0,0,0,
0,0,0,0,0,0,0,0,0,0,0,0,0,0,0,0,0,0,0,0,0,108,0,0,0,0,0,0,0,0,0,0,0,0,0,0,0,0,0,0,0,0,0,0,0,0,0,0,0,0,0,0,0,0,0,0,0,0,0,0,0,0,0,0,0,0,0,0,0,0,0,0,0,0,0,0,0,0,
0,0,0,0,0,0,0,0,0,0,0,0,0,0,0,0,0,125,0,0,0,109,109,0,0,0,0,0,0,0,0,0,0,0,0,0,0,0,0,0,0,0,0,0,0,0,98,0,0,130,0,0,0,0,0,0,0,0,0,0,0,0,0,0,0,0,0,0,0,0,0,0,0,0,0,0,0,0,
0,0,0,0,0,0,0,0,0,0,0,0,0,0,0,0,0,91,133,0,0,0,132,0,0,0,0,0,0,0,0,0,0,0,0,0,0,0,0,0,0,0,0,0,0,0,0,0,0,0,0,0,0,0,0,0,0,0,0,0,0,0,0,0,0,0,0,0,0,0,0,0,0,0,0,0,0,0,
0,0,0,0,0,0,0,0,0,0,0,0,0,0,0,0,0,0,0,0,0,0,0,0,0,0,0,0,0,0,0,0,0,0,0,0,0,0,0,0,0,0,0,0,0,0,0,0,0,0,0,0,0,0,0,0,0,0,0,0,0,0,0,0,0,0,0,0,0,0,0,0,0,0,0,0,0,0,
0,0,0,0,0,0,0,0,0,0,0,0,0,0,0,0,0,0,0,0,0,0,0,0,0,0,0,0,0,0,0,0,0,0,0,0,0,0,0,0,0,0,0,0,0,0,0,0,0,0,0,0,0,0,0,0,0,0,0,0,0,0,0,0,0,0,0,0,0,0,0,0,0,0,0,0,0,0,
0,0,0,0,0,0,0,0,0,0,0,0,0,0,0,0,0,0,0,0,0,0,0,0,0,0,0,0,0,0,0,0,0,0,0,0,0,0,0,0,0,0,0,0,0,0,0,0,0,0,0,0,0,0,0,0,0,0,0,0,0,0,0,0,0,0,0,0,0,0,0,0,0,0,0,0,0,0
</data>
 </layer>
 <objectgroup id="11" name="VentsHitbox" visible="0">
  <object id="299" x="456" y="16" width="53.75" height="33.25"/>
  <object id="304" x="176.545" y="469.091" width="53.8182" height="50.7273"/>
  <object id="306" x="37.3333" y="1216.67" width="49.3333" height="45.3333"/>
  <object id="308" x="409.333" y="1767.33" width="62.6667" height="44"/>
  <object id="309" x="1139.33" y="1306" width="42" height="48"/>
  <object id="310" x="1227.33" y="854" width="56" height="44.6667"/>
  <object id="416" x="1040.33" y="162.333" width="45" height="42"/>
 </objectgroup>
 <objectgroup id="10" name="ObjectsHitbox" visible="0" tintcolor="#ff0000">
  <object id="314" x="119.25" y="10.5" width="98" height="37"/>
  <object id="315" x="167.5" y="64.5" width="21.75" height="31"/>
  <object id="317" x="11.6667" y="227.333" width="73.3333" height="34.3333"/>
  <object id="318" x="93.3333" y="322" width="64.3333" height="40"/>
  <object id="319" x="47.3333" y="468" width="144" height="29.6667"/>
  <object id="320" x="83.3333" y="598.333" width="36.6667" height="60.6667"/>
  <object id="321" x="166.333" y="570.333" width="123" height="29.6667"/>
  <object id="322" x="191" y="754.667" width="99" height="38.3333"/>
  <object id="323" x="132.667" y="797.333" width="35.6667" height="78.6667"/>
  <object id="324" x="163.333" y="837" width="64.6667" height="38.6667"/>
  <object id="325" x="238.667" y="929.333" width="54.6667" height="31.3333"/>
  <object id="326" x="96.3333" y="960" width="47.3333" height="22.6667"/>
  <object id="327" x="169" y="960.667" width="47.3333" height="23.3333"/>
  <object id="328" x="71" y="1110" width="22" height="43"/>
  <object id="329" x="72.6667" y="1188.33" width="19.3333" height="36.6667"/>
  <object id="330" x="144" y="1189.67" width="20.6667" height="35"/>
  <object id="331" x="215.667" y="1190.33" width="20.6667" height="34"/>
  <object id="332" x="166.333" y="1115" width="135.667" height="39"/>
  <object id="333" x="165" y="1332" width="75" height="29"/>
  <object id="334" x="95.5" y="1415" width="49" height="24.5"/>
  <object id="335" x="191" y="1417.5" width="61.5" height="22.5"/>
  <object id="336" x="404" y="1684.5" width="74.5" height="34.5"/>
  <object id="337" x="503" y="1728" width="49.5" height="24"/>
  <object id="338" x="409" y="1366.5" width="48.5" height="23.5"/>
  <object id="339" x="480" y="1369" width="48.5" height="22"/>
  <object id="340" x="551.5" y="1369" width="49" height="22.5"/>
  <object id="342" x="715.5" y="1289" width="105" height="31.5"/>
  <object id="343" x="744" y="1334" width="21" height="33"/>
  <object id="344" x="1175.5" y="1303" width="32.75" height="39.75"/>
  <object id="345" x="1223.5" y="1305" width="34.25" height="37.25"/>
  <object id="346" x="1199.5" y="1379.25" width="20.75" height="37.5"/>
  <object id="347" x="600.5" y="936.5" width="95.5" height="71.75"/>
  <object id="348" x="455.667" y="285" width="43.6667" height="25.6667"/>
  <object id="349" x="550" y="244" width="112.333" height="21.6667"/>
  <object id="350" x="336" y="48.75" width="48.75" height="22"/>
  <object id="351" x="410.75" y="46.5" width="113.25" height="24.75"/>
  <object id="352" x="504" y="4.25" width="20.75" height="51.75"/>
  <object id="353" x="1353" y="78.6667" width="79" height="44"/>
  <object id="354" x="1295.67" y="179.333" width="21" height="37"/>
  <object id="355" x="1367.67" y="238.333" width="43.3333" height="24.6667"/>
  <object id="357" x="1185.67" y="632.667" width="174.333" height="38.3333"/>
  <object id="358" x="1272.33" y="719.333" width="48.6667" height="23"/>
  <object id="359" x="1200" y="712.667" width="19.6667" height="29"/>
  <object id="360" x="1199.67" y="760.333" width="19.6667" height="29.6667"/>
  <object id="361" x="1200.33" y="807.667" width="19" height="31"/>
  <object id="362" x="1200.33" y="857.667" width="19.6667" height="28.6667"/>
  <object id="363" x="1220" y="886.333"/>
  <object id="364" x="910.75" y="634.5" width="26.5" height="38.5"/>
  <object id="365" x="982.25" y="634.25" width="31" height="40.25"/>
  <object id="366" x="931.25" y="630" width="60.75" height="21"/>
  <object id="367" x="984" y="710.25" width="20.75" height="58"/>
  <object id="368" x="1080" y="708.75" width="20.25" height="35.5"/>
 </objectgroup>
 <objectgroup id="12" name="Doors" visible="0">
  <object id="371" x="142" y="128.364" width="50.5455" height="15.2727"/>
  <object id="373" x="334.727" y="103.697" width="50.5455" height="15.2727"/>
  <object id="374" x="671.818" y="73.394" width="50.5455" height="15.2727" rotation="-90"/>
  <object id="375" x="407.273" y="392.727" width="50.5455" height="15.2727"/>
  <object id="376" x="153.394" y="425.03" width="50.5455" height="15.2727" rotation="-90"/>
  <object id="377" x="94.2727" y="551.333" width="50.5455" height="15.2727"/>
  <object id="378" x="120.727" y="729.864" width="50.5455" height="15.2727"/>
  <object id="379" x="335.227" y="840.864" width="50.5455" height="15.2727" rotation="-90"/>
  <object id="380" x="272.477" y="625.364" width="52.1819" height="15.2727" rotation="-90"/>
  <object id="381" x="311.227" y="1057.86" width="50.5455" height="15.2727" rotation="-90"/>
  <object id="382" x="74.2273" y="1098.86" width="50.5455" height="15.2727" rotation="-180"/>
  <object id="383" x="193.227" y="1552.86" width="50.5455" height="15.2727" rotation="-180"/>
  <object id="384" x="362.227" y="1670.36" width="50.5455" height="15.2727" rotation="-180"/>
  <object id="385" x="1295.73" y="1414.86" width="50.5455" height="15.2727" rotation="90"/>
  <object id="386" x="978.227" y="1390.36" width="50.5455" height="15.2727" rotation="90"/>
  <object id="387" x="481.227" y="1308.86" width="50.5455" height="15.2727" rotation="-180"/>
  <object id="388" x="958.227" y="189.864" width="50.5455" height="15.2727" rotation="90"/>
  <object id="389" x="1153.73" y="408.364" width="50.5455" height="15.2727" rotation="-180"/>
  <object id="390" x="1392.85" y="376.239" width="50.5455" height="15.2727" rotation="-180"/>
  <object id="391" x="1105.23" y="622.364" width="50.5455" height="15.2727" rotation="-180"/>
  <object id="392" x="1033.91" y="869.545" width="50.5455" height="15.2727" rotation="-180"/>
  <object id="393" x="1391.98" y="670.364" width="50.5455" height="15.2727" rotation="90"/>
 </objectgroup>
 <objectgroup id="14" name="Sabotage" visible="0">
  <object id="394" x="-4" y="-5" width="249.5" height="137.5"/>
  <object id="395" x="22" y="450.667" width="216.667" height="102"/>
  <object id="396" x="55.6667" y="561.667" width="222" height="172.333"/>
  <object id="397" x="-5" y="916" width="322" height="173"/>
  <object id="398" x="40" y="1313" width="232" height="226"/>
  <object id="399" x="1119" y="1282" width="167" height="204"/>
  <object id="400" x="329" y="1301" width="336" height="165"/>
  <object id="401" x="867" y="615" width="287" height="243"/>
  <object id="402" x="1246" y="74" width="224" height="289"/>
  <object id="404" x="956" y="98" width="215" height="296"/>
  <object id="405" x="279.333" y="-6" width="397.333" height="115.333"/>
  <object id="407" x="2.5" y="255" width="156.5" height="180.5"/>
 </objectgroup>
 <objectgroup id="16" name="WindowSabotage" visible="0">
  <object id="409" x="396" y="238" width="289" height="162"/>
  <object id="410" x="99" y="740" width="241" height="148.5"/>
  <object id="412" x="2" y="1096" width="322" height="192"/>
  <object id="413" x="289" y="1662" width="294" height="182"/>
  <object id="414" x="1172" y="615" width="208" height="301"/>
  <object id="415" x="691" y="1280" width="274.5" height="170.5"/>
 </objectgroup>
 <objectgroup id="24" name="ObjectLayer">
  <object id="497" gid="172" x="504.917" y="48" width="18.125" height="17.125"/>
  <object id="498" gid="161" x="407.25" y="1593.75" width="64" height="22"/>
  <object id="499" gid="161" x="1169" y="1187" width="64" height="22"/>
  <object id="500" gid="162" x="1259" y="1565" width="22" height="22"/>
  <object id="501" gid="161" x="1172" y="535" width="64" height="22"/>
  <object id="502" gid="161" x="723" y="465" width="64" height="22"/>
  <object id="503" gid="154" x="846" y="103" width="24" height="24"/>
  <object id="504" gid="160" x="173.545" y="850.636" width="6" height="9"/>
  <object id="505" gid="159" x="191.727" y="848.273" width="7" height="10"/>
  <object id="506" gid="169" x="146.091" y="811.636" width="7" height="8"/>
  <object id="507" gid="170" x="153.909" y="840.545" width="7" height="8"/>
  <object id="508" gid="170" x="99.3333" y="630.333" width="7" height="8"/>
  <object id="509" gid="165" x="100" y="967" width="4" height="8"/>
  <object id="510" gid="171" x="195.667" y="967.667" width="4" height="3"/>
  <object id="511" gid="168" x="745.667" y="1338.33" width="15" height="8.33333"/>
  <object id="512" gid="169" x="420.333" y="1374" width="7" height="8"/>
  <object id="513" gid="169" x="439.667" y="1378" width="7" height="8"/>
  <object id="514" gid="169" x="573.667" y="1374.67" width="7" height="8"/>
  <object id="515" gid="170" x="491" y="1378.67" width="7" height="8"/>
  <object id="516" gid="167" x="73" y="1124.67" width="19" height="11"/>
  <object id="517" gid="163" x="76" y="1138.33" width="13" height="12"/>
  <object id="518" gid="154" x="218.667" y="1195" width="15.6667" height="16.3333"/>
  <object id="519" gid="157" x="149.667" y="1191" width="3" height="3"/>
  <object id="520" gid="156" x="81.6667" y="1205.33" width="3" height="3"/>
  <object id="521" gid="156" x="76" y="1195.33" width="3" height="3"/>
  <object id="522" gid="158" x="152.667" y="1208.67" width="7" height="10"/>
  <object id="523" gid="158" x="513.333" y="1737" width="7" height="10"/>
  <object id="524" gid="151" x="118.5" y="344.75" width="24" height="24"/>
  <object id="525" gid="151" x="27.75" y="247.5" width="19.5" height="21.25"/>
  <object id="526" gid="2147483799" x="52" y="250" width="16.75" height="17.5"/>
  <object id="527" gid="115" x="169.636" y="66.2727" width="10" height="13"/>
  <object id="528" gid="116" x="179.455" y="78.9091" width="8" height="13"/>
  <object id="529" gid="147" x="420.75" y="56" width="15.4639" height="15.4639"/>
  <object id="530" gid="147" x="413.428" y="55.4639" width="15.4639" height="15.4639"/>
  <object id="531" gid="147" x="416.972" y="55.4639" width="15.4639" height="15.4639"/>
  <object id="532" gid="145" x="472.25" y="54" width="16.375" height="16.125"/>
  <object id="534" gid="114" x="609.455" y="244.273" width="10" height="13"/>
  <object id="535" gid="114" x="565" y="253" width="10" height="13"/>
  <object id="536" gid="116" x="633.364" y="261.636" width="8" height="13"/>
  <object id="538" gid="117" x="589.818" y="261.636" width="9" height="12"/>
  <object id="539" gid="117" x="587.545" y="228.636" width="9" height="12"/>
  <object id="540" gid="115" x="635.909" y="228.727" width="10" height="13"/>
  <object id="541" gid="102" x="1121" y="152" width="13.875" height="39.75" rotation="-90"/>
  <object id="542" gid="114" x="1056.27" y="157.182" width="10" height="13"/>
  <object id="543" gid="115" x="1032.27" y="181.909" width="10" height="13"/>
  <object id="544" gid="116" x="1081.27" y="181.727" width="8" height="13"/>
  <object id="545" gid="169" x="1372.25" y="244.75" width="7" height="8"/>
  <object id="546" gid="169" x="1384" y="244.5" width="7" height="8"/>
  <object id="547" gid="170" x="1396.25" y="245" width="7" height="8"/>
  <object id="548" gid="163" x="1300.75" y="188.5" width="13" height="12"/>
  <object id="549" gid="91" x="1301.25" y="199.75" width="9.25" height="9"/>
  <object id="550" gid="160" x="202.333" y="1423.67" width="6" height="9"/>
  <object id="551" gid="158" x="224.333" y="1425" width="7" height="10"/>
  <object id="552" gid="166" x="121.667" y="1425.33" width="13.3333" height="9.33333"/>
  <object id="553" gid="172" x="1204" y="1387.76" width="11.2" height="11.2"/>
  <object id="554" gid="172" x="1204.13" y="1400" width="11.2" height="11.2"/>
  <object id="555" gid="156" x="990" y="708.75" width="3" height="3"/>
  <object id="556" gid="159" x="996.5" y="734.25" width="7" height="10" rotation="-90"/>
  <object id="557" gid="163" x="988.75" y="751.75" width="13" height="12"/>
  <object id="558" gid="156" x="996.25" y="713.5" width="3" height="3"/>
  <object id="559" gid="164" x="1084.25" y="725.75" width="11" height="20"/>
  <object id="560" gid="153" x="916" y="627.25" width="14.25" height="16"/>
  <object id="561" gid="169" x="1202.67" y="714" width="7" height="8"/>
  <object id="562" gid="169" x="1210.33" y="823" width="7" height="8"/>
  <object id="563" gid="170" x="1210" y="725.333" width="7" height="8"/>
  <object id="564" gid="170" x="1209.67" y="773" width="7" height="8"/>
  <object id="565" gid="170" x="1204" y="809.333" width="7" height="8"/>
  <object id="566" gid="171" x="1211.67" y="869.333" width="4" height="3"/>
  <object id="567" gid="160" x="1208" y="853.333" width="6" height="9" rotation="90"/>
  <object id="568" gid="169" x="1305.88" y="728.25" width="7" height="8"/>
 </objectgroup>
</map>
